; generated by PrusaSlicer 2.5.2+linux-x64-GTK3 on 2024-05-29 at 11:24:10 UTC


;
;

;
;

;
;
; 

; external perimeters extrusion width = 0.40mm
; perimeters extrusion width = 0.40mm
; infill extrusion width = 0.40mm
; solid infill extrusion width = 0.40mm
; top infill extrusion width = 0.40mm
; first layer extrusion width = 0.50mm

M73 P0 R95
M201 X2500 Y2500 Z200 E2500 ; sets maximum accelerations, mm/sec^2
M203 X200 Y200 Z40 E100 ; sets maximum feedrates, mm / sec
M204 P2000 R1200 T2000 ; sets acceleration (P, T) and retract acceleration (R), mm/sec^2
M205 X8.00 Y8.00 Z2.00 E10.00 ; sets the jerk limits, mm/sec
M205 S0 T0 ; sets the minimum extruding and travel feed rate, mm/sec
M107
;TYPE:Custom
M17 ; enable steppers
M862.3 P "MK4" ; printer model check
M862.1 P0.4 ; nozzle diameter check
M330 SYSLOG
M331 loadcell_raw
M331 loadcell_threshold
M331 loadcell_hysteresis
M331 loadcell_scale
M331 probe_z
M331 probe_z_raw
M331 probe_z_diff
M331 home_diff
M331 fsensor_raw
M331 temp_hbr
M331 temp_bed
M331 temp_noz
M331 temp_brd
M331 ttemp_bed
M331 ttemp_noz
M331 pos_z
M331 fan_speed
M331 fan_hbr_speed
M331 tmc_sg_x
M331 tmc_sg_y
M331 tmc_sg_z
M331 tmc_sg_e

M555 X115.5 Y97.75 W32 H10.5

G90 ; use absolute coordinates
M92 E380 ; set steps/mm for extruder
M83 ; extruder relative mode

M140 S60 ; set bed temp

M104 S170 ; set extruder temp for bed leveling
M109 R170 ; wait for temp


M84 E ; turn off E motor

G28 ; home all without mesh bed level

; probe to clean the nozzle
G1 X147.5 Y97.75 Z5 F4800

M302 S160 ; lower cold extrusion limit to 160C


G1 E-2 F2400 ; retraction


M84 E ; turn off E motor

G29 P9 X115.5 Y97.75 W32 H4

M106 S100

G0 X115.5 Y97.75 Z40 F10000

M190 S60 ; wait for bed temp

M107

;
; MBL
;
M84 E ; turn off E motor
G29 ; mesh bed leveling
M104 S215 ; set extruder temp
G0 X115.5 Y97.25 Z30 F4800

M109 S215 ; wait for extruder temp
G1 Z0.2 F720
G92 E0

M569 S0 E ; set spreadcycle mode for extruder

;
; Extrude purge line
;

G1 E2 F2400 ; deretraction


; move right
G1 X147.5 E4.8 F1000
; move down
G1 Y95.75 E0.225 F1000
; move left
G1 X115.5 E9.6 F800

G92 E0
M221 S100 ; set flow to 100%
G21 ; set units to millimeters
G90 ; use absolute coordinates
M83 ; use relative distances for extrusion
M900 K0.06 ; Filament gcode

M142 S36 ; set heatbreak target temp
M107
;LAYER_CHANGE
;Z:0.2
;HEIGHT:0.2
;BEFORE_LAYER_CHANGE
G92 E0.0
;0.2


G1 E-.8 F2100
G1 Z.2 F720
;AFTER_LAYER_CHANGE
;0.2
; printing object loft_handle2.stl id:0 copy 0
G1 Z.4
G1 X116.864 Y106.886 F12000
G1 Z.2 F720
G1 E.8 F1500
M204 P600
;TYPE:Perimeter
;WIDTH:0.499999
G1 F1200
G1 X116.864 Y103.114 E.14335
G1 X133.136 Y103.114 E.61843
G1 X133.136 Y106.886 E.14335
G1 X116.924 Y106.886 E.61615
M204 P1000
G1 X116.407 Y107.343 F12000
M204 P600
G1 F1200
G1 X116.407 Y102.657 E.17809
G1 X133.593 Y102.657 E.65317
G1 X133.593 Y107.343 E.17809
G1 X116.467 Y107.343 E.65089
M204 P1000
G1 X115.95 Y107.8 F12000
M204 P600
;TYPE:External perimeter
G1 F1200
G1 X115.95 Y102.2 E.21284
G1 X134.05 Y102.2 E.68791
G1 X134.05 Y107.8 E.21284
G1 X116.01 Y107.8 E.68563
M204 P1000
G1 X116.114 Y107.435 F12000
G1 E-.64 F2100
;WIPE_START
G1 F9600
G1 X116.002 Y107.069 E-.152
;WIPE_END
G1 E-.008 F2100
G1 Z.4 F720
G1 X132.93 Y104.273 F12000
G1 Z.2 F720
G1 E.8 F1500
M204 P600
;TYPE:Solid infill
;WIDTH:0.513806
G1 F1200
G1 X132.183 Y103.526 E.0414
G1 X131.517 Y103.526 E.02607
G1 X132.724 Y104.733 E.06688
G1 X132.724 Y105.399 E.02607
G1 X130.851 Y103.526 E.10375
G1 X130.185 Y103.526 E.02607
G1 X132.724 Y106.065 E.14063
G1 X132.724 Y106.474 E.01602
G1 X132.468 Y106.474 E.01005
G1 X129.519 Y103.526 E.16329
G1 X128.853 Y103.526 E.02607
G1 X131.802 Y106.474 E.16329
G1 X131.136 Y106.474 E.02607
G1 X128.187 Y103.526 E.16329
G1 X127.521 Y103.526 E.02607
G1 X130.47 Y106.474 E.16329
G1 X129.804 Y106.474 E.02607
G1 X126.855 Y103.526 E.16329
G1 X126.189 Y103.526 E.02607
G1 X129.138 Y106.474 E.16329
G1 X128.472 Y106.474 E.02607
G1 X125.523 Y103.526 E.16329
G1 X124.857 Y103.526 E.02607
G1 X127.806 Y106.474 E.16329
G1 X127.14 Y106.474 E.02607
G1 X124.191 Y103.526 E.16329
G1 X123.525 Y103.526 E.02607
G1 X126.474 Y106.474 E.16329
G1 X125.808 Y106.474 E.02607
G1 X122.86 Y103.526 E.16329
G1 X122.194 Y103.526 E.02607
G1 X125.143 Y106.474 E.16329
G1 X124.477 Y106.474 E.02607
G1 X121.528 Y103.526 E.16329
G1 X120.862 Y103.526 E.02607
G1 X123.811 Y106.474 E.16329
G1 X123.145 Y106.474 E.02607
G1 X120.196 Y103.526 E.16329
G1 X119.53 Y103.526 E.02607
G1 X122.479 Y106.474 E.16329
G1 X121.813 Y106.474 E.02607
G1 X118.864 Y103.526 E.16329
G1 X118.198 Y103.526 E.02607
G1 X121.147 Y106.474 E.16329
G1 X120.481 Y106.474 E.02607
G1 X117.532 Y103.526 E.16329
G1 X117.276 Y103.526 E.01004
G1 X117.276 Y103.935 E.01603
G1 X119.815 Y106.474 E.14062
G1 X119.149 Y106.474 E.02607
G1 X117.276 Y104.601 E.10375
G1 X117.276 Y105.267 E.02607
G1 X118.483 Y106.474 E.06687
G1 X117.817 Y106.474 E.02607
G1 X117.07 Y105.727 E.04139
M204 P1000
; stop printing object loft_handle2.stl id:0 copy 0
M106 S84.15
;LAYER_CHANGE
;Z:0.3
;HEIGHT:0.1
;BEFORE_LAYER_CHANGE
G92 E0.0
;0.3


G1 E-.64 F2100
;WIPE_START
G1 F9600
G1 X117.587 Y106.244 E-.152
;WIPE_END
G1 E-.008 F2100
G1 Z.4 F720
;AFTER_LAYER_CHANGE
;0.3
; printing object loft_handle2.stl id:0 copy 0
G1 X116.457 Y107.293 F12000
G1 Z.3 F720
G1 E.8 F1500
M204 P700
;TYPE:Perimeter
;WIDTH:0.399999
G1 F2700
G1 X116.457 Y102.707 E.07217
G1 X133.543 Y102.707 E.26889
G1 X133.543 Y107.293 E.07217
G1 X116.517 Y107.293 E.26795
M204 P1000
G1 X116.079 Y107.671 F12000
M204 P700
G1 F2700
G1 X116.079 Y102.329 E.08409
G1 X133.921 Y102.329 E.28081
G1 X133.921 Y107.671 E.08409
G1 X116.139 Y107.671 E.27986
M204 P1000
G1 X115.7 Y108.05 F12000
M204 P500
;TYPE:External perimeter
G1 F1500
G1 X115.7 Y101.95 E.096
G1 X134.3 Y101.95 E.29272
G1 X134.3 Y108.05 E.096
G1 X115.76 Y108.05 E.29178
M204 P1000
G1 X115.862 Y107.684 F12000
G1 E-.64 F2100
;WIPE_START
G1 F9600
G1 X115.753 Y107.319 E-.152
;WIPE_END
G1 E-.008 F2100
G1 Z.5 F720
G1 X132.6 Y107.123 F12000
G1 Z.3 F720
G1 E.8 F1500
M204 P1250
;TYPE:Solid infill
;WIDTH:0.403406
G1 F3026
G1 X133.202 Y106.52 E.01352
G1 X133.202 Y105.98 E.00858
G1 X132.23 Y106.952 E.02183
G1 X131.69 Y106.952 E.00858
G1 X133.202 Y105.44 E.03396
G1 X133.202 Y104.9 E.00858
G1 X131.15 Y106.952 E.04609
G1 X130.61 Y106.952 E.00858
G1 X133.202 Y104.36 E.05822
G1 X133.202 Y103.82 E.00858
G1 X130.07 Y106.952 E.07035
G1 X129.53 Y106.952 E.00858
G1 X133.202 Y103.28 E.08248
G1 X133.202 Y103.048 E.00368
G1 X132.894 Y103.048 E.0049
G1 X128.989 Y106.952 E.08768
G1 X128.449 Y106.952 E.00858
G1 X132.354 Y103.048 E.08768
G1 X131.814 Y103.048 E.00858
G1 X127.909 Y106.952 E.08768
G1 X127.369 Y106.952 E.00858
G1 X131.273 Y103.048 E.08768
G1 X130.733 Y103.048 E.00858
G1 X126.829 Y106.952 E.08768
G1 X126.289 Y106.952 E.00858
G1 X130.193 Y103.048 E.08768
G1 X129.653 Y103.048 E.00858
G1 X125.748 Y106.952 E.08768
G1 X125.208 Y106.952 E.00858
G1 X129.113 Y103.048 E.08768
G1 X128.573 Y103.048 E.00858
G1 X124.668 Y106.952 E.08768
G1 X124.128 Y106.952 E.00858
G1 X128.033 Y103.048 E.08768
G1 X127.492 Y103.048 E.00858
G1 X123.588 Y106.952 E.08768
G1 X123.048 Y106.952 E.00858
G1 X126.952 Y103.048 E.08768
G1 X126.412 Y103.048 E.00858
G1 X122.508 Y106.952 E.08768
G1 X121.967 Y106.952 E.00858
G1 X125.872 Y103.048 E.08768
G1 X125.332 Y103.048 E.00858
G1 X121.427 Y106.952 E.08768
G1 X120.887 Y106.952 E.00858
G1 X124.792 Y103.048 E.08768
G1 X124.251 Y103.048 E.00858
G1 X120.347 Y106.952 E.08768
G1 X119.807 Y106.952 E.00858
G1 X123.711 Y103.048 E.08768
G1 X123.171 Y103.048 E.00858
G1 X119.267 Y106.952 E.08768
G1 X118.726 Y106.952 E.00858
G1 X122.631 Y103.048 E.08768
G1 X122.091 Y103.048 E.00858
G1 X118.186 Y106.952 E.08768
G1 X117.646 Y106.952 E.00858
G1 X121.551 Y103.048 E.08768
G1 X121.011 Y103.048 E.00858
G1 X117.106 Y106.952 E.08768
G1 X116.798 Y106.952 E.0049
G1 X116.798 Y106.72 E.00368
G1 X120.47 Y103.048 E.08248
G1 X119.93 Y103.048 E.00858
G1 X116.798 Y106.18 E.07035
G1 X116.798 Y105.64 E.00858
G1 X119.39 Y103.048 E.05821
G1 X118.85 Y103.048 E.00858
G1 X116.798 Y105.1 E.04608
G1 X116.798 Y104.56 E.00858
G1 X118.31 Y103.048 E.03395
G1 X117.77 Y103.048 E.00858
G1 X116.798 Y104.02 E.02182
G1 X116.798 Y103.479 E.00858
G1 X117.4 Y102.877 E.01352
M204 P1000
; stop printing object loft_handle2.stl id:0 copy 0
M106 S170.85
;LAYER_CHANGE
;Z:0.4
;HEIGHT:0.1
;BEFORE_LAYER_CHANGE
G92 E0.0
;0.4


G1 E-.64 F2100
;WIPE_START
G1 F9600
G1 X116.883 Y103.395 E-.152
;WIPE_END
G1 E-.008 F2100
G1 Z.5 F720
;AFTER_LAYER_CHANGE
;0.4
; printing object loft_handle2.stl id:0 copy 0
G1 X116.457 Y107.293 F12000
G1 Z.4 F720
G1 E.8 F1500
M204 P700
;TYPE:Perimeter
;WIDTH:0.399999
G1 F2700
G1 X116.457 Y102.707 E.07217
G1 X133.543 Y102.707 E.26889
G1 X133.543 Y107.293 E.07217
G1 X116.517 Y107.293 E.26795
M204 P1000
G1 X116.079 Y107.671 F12000
M204 P700
G1 F2700
M73 P0 R94
G1 X116.079 Y102.329 E.08409
G1 X133.921 Y102.329 E.28081
G1 X133.921 Y107.671 E.08409
G1 X116.139 Y107.671 E.27986
M204 P1000
G1 X115.7 Y108.05 F12000
M204 P500
;TYPE:External perimeter
G1 F1500
G1 X115.7 Y101.95 E.096
G1 X134.3 Y101.95 E.29272
G1 X134.3 Y108.05 E.096
G1 X115.76 Y108.05 E.29178
M204 P1000
G1 X115.862 Y107.684 F12000
G1 E-.64 F2100
;WIPE_START
G1 F9600
G1 X115.753 Y107.319 E-.152
;WIPE_END
G1 E-.008 F2100
G1 Z.6 F720
G1 X133.373 Y103.65 F12000
G1 Z.4 F720
G1 E.8 F1500
M204 P1250
;TYPE:Solid infill
;WIDTH:0.403406
G1 F3040
G1 X132.77 Y103.048 E.01352
G1 X132.23 Y103.048 E.00858
G1 X133.202 Y104.02 E.02183
G1 X133.202 Y104.56 E.00858
G1 X131.69 Y103.048 E.03396
G1 X131.15 Y103.048 E.00858
G1 X133.202 Y105.1 E.04609
G1 X133.202 Y105.64 E.00858
G1 X130.61 Y103.048 E.05822
G1 X130.07 Y103.048 E.00858
G1 X133.202 Y106.18 E.07035
G1 X133.202 Y106.72 E.00858
G1 X129.53 Y103.048 E.08248
G1 X128.989 Y103.048 E.00858
G1 X132.894 Y106.952 E.08768
G1 X132.354 Y106.952 E.00858
G1 X128.449 Y103.048 E.08768
G1 X127.909 Y103.048 E.00858
G1 X131.814 Y106.952 E.08768
G1 X131.273 Y106.952 E.00858
G1 X127.369 Y103.048 E.08768
G1 X126.829 Y103.048 E.00858
G1 X130.733 Y106.952 E.08768
G1 X130.193 Y106.952 E.00858
G1 X126.289 Y103.048 E.08768
G1 X125.748 Y103.048 E.00858
G1 X129.653 Y106.952 E.08768
G1 X129.113 Y106.952 E.00858
G1 X125.208 Y103.048 E.08768
G1 X124.668 Y103.048 E.00858
G1 X128.573 Y106.952 E.08768
G1 X128.033 Y106.952 E.00858
G1 X124.128 Y103.048 E.08768
G1 X123.588 Y103.048 E.00858
G1 X127.492 Y106.952 E.08768
G1 X126.952 Y106.952 E.00858
G1 X123.048 Y103.048 E.08768
G1 X122.508 Y103.048 E.00858
G1 X126.412 Y106.952 E.08768
G1 X125.872 Y106.952 E.00858
G1 X121.967 Y103.048 E.08768
G1 X121.427 Y103.048 E.00858
G1 X125.332 Y106.952 E.08768
G1 X124.792 Y106.952 E.00858
G1 X120.887 Y103.048 E.08768
G1 X120.347 Y103.048 E.00858
G1 X124.251 Y106.952 E.08768
G1 X123.711 Y106.952 E.00858
G1 X119.807 Y103.048 E.08768
G1 X119.267 Y103.048 E.00858
G1 X123.171 Y106.952 E.08768
G1 X122.631 Y106.952 E.00858
G1 X118.726 Y103.048 E.08768
G1 X118.186 Y103.048 E.00858
G1 X122.091 Y106.952 E.08768
G1 X121.551 Y106.952 E.00858
G1 X117.646 Y103.048 E.08768
G1 X117.106 Y103.048 E.00858
G1 X121.011 Y106.952 E.08768
G1 X120.47 Y106.952 E.00858
G1 X116.798 Y103.28 E.08248
G1 X116.798 Y103.82 E.00858
G1 X119.93 Y106.952 E.07035
G1 X119.39 Y106.952 E.00858
G1 X116.798 Y104.36 E.05821
G1 X116.798 Y104.9 E.00858
G1 X118.85 Y106.952 E.04608
G1 X118.31 Y106.952 E.00858
G1 X116.798 Y105.44 E.03395
G1 X116.798 Y105.98 E.00858
G1 X117.77 Y106.952 E.02182
G1 X117.229 Y106.952 E.00858
G1 X116.627 Y106.35 E.01352
M204 P1000
; stop printing object loft_handle2.stl id:0 copy 0
M106 S255
;LAYER_CHANGE
;Z:0.5
;HEIGHT:0.1
;BEFORE_LAYER_CHANGE
G92 E0.0
;0.5


G1 E-.64 F2100
;WIPE_START
G1 F9600
G1 X117.145 Y106.867 E-.152
;WIPE_END
G1 E-.008 F2100
G1 Z.6 F720
;AFTER_LAYER_CHANGE
;0.5
; printing object loft_handle2.stl id:0 copy 0
G1 X116.457 Y107.293 F12000
G1 Z.5 F720
G1 E.8 F1500
M204 P700
;TYPE:Perimeter
;WIDTH:0.399999
G1 F2700
G1 X116.457 Y102.707 E.07217
G1 X133.543 Y102.707 E.26889
G1 X133.543 Y107.293 E.07217
G1 X116.517 Y107.293 E.26795
M204 P1000
G1 X116.079 Y107.671 F12000
M204 P700
G1 F2700
G1 X116.079 Y102.329 E.08409
G1 X133.921 Y102.329 E.28081
G1 X133.921 Y107.671 E.08409
G1 X116.139 Y107.671 E.27986
M204 P1000
G1 X115.7 Y108.05 F12000
M204 P500
;TYPE:External perimeter
G1 F1500
G1 X115.7 Y101.95 E.096
G1 X134.3 Y101.95 E.29272
G1 X134.3 Y108.05 E.096
G1 X115.76 Y108.05 E.29178
M204 P1000
G1 X115.862 Y107.684 F12000
G1 E-.64 F2100
;WIPE_START
G1 F9600
G1 X115.753 Y107.319 E-.152
;WIPE_END
G1 E-.008 F2100
G1 Z.7 F720
G1 X132.6 Y107.123 F12000
G1 Z.5 F720
G1 E.8 F1500
M204 P1250
;TYPE:Solid infill
;WIDTH:0.403406
G1 F3023
G1 X133.202 Y106.52 E.01352
G1 X133.202 Y105.98 E.00858
G1 X132.23 Y106.952 E.02183
G1 X131.69 Y106.952 E.00858
G1 X133.202 Y105.44 E.03396
G1 X133.202 Y104.9 E.00858
G1 X131.15 Y106.952 E.04609
G1 X130.61 Y106.952 E.00858
G1 X133.202 Y104.36 E.05822
G1 X133.202 Y103.82 E.00858
G1 X130.07 Y106.952 E.07035
G1 X129.53 Y106.952 E.00858
G1 X133.202 Y103.28 E.08248
G1 X133.202 Y103.048 E.00368
G1 X132.894 Y103.048 E.0049
G1 X128.989 Y106.952 E.08768
G1 X128.449 Y106.952 E.00858
G1 X132.354 Y103.048 E.08768
G1 X131.814 Y103.048 E.00858
G1 X127.909 Y106.952 E.08768
G1 X127.369 Y106.952 E.00858
G1 X131.273 Y103.048 E.08768
G1 X130.733 Y103.048 E.00858
G1 X126.829 Y106.952 E.08768
G1 X126.289 Y106.952 E.00858
G1 X130.193 Y103.048 E.08768
G1 X129.653 Y103.048 E.00858
G1 X125.748 Y106.952 E.08768
G1 X125.208 Y106.952 E.00858
G1 X129.113 Y103.048 E.08768
G1 X128.573 Y103.048 E.00858
G1 X124.668 Y106.952 E.08768
G1 X124.128 Y106.952 E.00858
G1 X128.033 Y103.048 E.08768
G1 X127.492 Y103.048 E.00858
G1 X123.588 Y106.952 E.08768
G1 X123.048 Y106.952 E.00858
G1 X126.952 Y103.048 E.08768
G1 X126.412 Y103.048 E.00858
G1 X122.508 Y106.952 E.08768
G1 X121.967 Y106.952 E.00858
G1 X125.872 Y103.048 E.08768
G1 X125.332 Y103.048 E.00858
G1 X121.427 Y106.952 E.08768
G1 X120.887 Y106.952 E.00858
G1 X124.792 Y103.048 E.08768
G1 X124.251 Y103.048 E.00858
G1 X120.347 Y106.952 E.08768
G1 X119.807 Y106.952 E.00858
G1 X123.711 Y103.048 E.08768
G1 X123.171 Y103.048 E.00858
G1 X119.267 Y106.952 E.08768
G1 X118.726 Y106.952 E.00858
G1 X122.631 Y103.048 E.08768
G1 X122.091 Y103.048 E.00858
G1 X118.186 Y106.952 E.08768
G1 X117.646 Y106.952 E.00858
G1 X121.551 Y103.048 E.08768
G1 X121.011 Y103.048 E.00858
G1 X117.106 Y106.952 E.08768
G1 X116.798 Y106.952 E.0049
G1 X116.798 Y106.72 E.00368
G1 X120.47 Y103.048 E.08248
G1 X119.93 Y103.048 E.00858
G1 X116.798 Y106.18 E.07035
G1 X116.798 Y105.64 E.00858
G1 X119.39 Y103.048 E.05821
G1 X118.85 Y103.048 E.00858
G1 X116.798 Y105.1 E.04608
G1 X116.798 Y104.56 E.00858
G1 X118.31 Y103.048 E.03395
G1 X117.77 Y103.048 E.00858
G1 X116.798 Y104.02 E.02182
G1 X116.798 Y103.479 E.00858
G1 X117.4 Y102.877 E.01352
M204 P1000
; stop printing object loft_handle2.stl id:0 copy 0
;LAYER_CHANGE
;Z:0.6
;HEIGHT:0.1
;BEFORE_LAYER_CHANGE
G92 E0.0
;0.6


G1 E-.64 F2100
;WIPE_START
G1 F9600
G1 X116.883 Y103.395 E-.152
;WIPE_END
G1 E-.008 F2100
G1 Z.7 F720
;AFTER_LAYER_CHANGE
;0.6
; printing object loft_handle2.stl id:0 copy 0
G1 X116.457 Y107.293 F12000
G1 Z.6 F720
G1 E.8 F1500
M204 P700
;TYPE:Perimeter
;WIDTH:0.399999
G1 F2700
G1 X116.457 Y102.707 E.07217
G1 X133.543 Y102.707 E.26889
G1 X133.543 Y107.293 E.07217
G1 X116.517 Y107.293 E.26795
M204 P1000
G1 X116.079 Y107.671 F12000
M204 P700
G1 F2700
G1 X116.079 Y102.329 E.08409
G1 X133.921 Y102.329 E.28081
G1 X133.921 Y107.671 E.08409
G1 X116.139 Y107.671 E.27986
M204 P1000
G1 X115.7 Y108.05 F12000
M204 P500
;TYPE:External perimeter
M73 P1 R94
G1 F1500
G1 X115.7 Y101.95 E.096
G1 X134.3 Y101.95 E.29272
G1 X134.3 Y108.05 E.096
G1 X115.76 Y108.05 E.29178
M204 P1000
G1 X115.862 Y107.684 F12000
G1 E-.64 F2100
;WIPE_START
G1 F9600
G1 X115.753 Y107.319 E-.152
;WIPE_END
G1 E-.008 F2100
G1 Z.8 F720
G1 X133.373 Y103.65 F12000
G1 Z.6 F720
G1 E.8 F1500
M204 P1250
;TYPE:Solid infill
;WIDTH:0.403406
G1 F3040
G1 X132.77 Y103.048 E.01352
G1 X132.23 Y103.048 E.00858
G1 X133.202 Y104.02 E.02183
G1 X133.202 Y104.56 E.00858
G1 X131.69 Y103.048 E.03396
