; generated by PrusaSlicer 2.5.2+linux-x64-GTK3 on 2024-05-21 at 17:10:36 UTC


;
;
; 

; external perimeters extrusion width = 0.45mm
; perimeters extrusion width = 0.45mm
; infill extrusion width = 0.45mm
; solid infill extrusion width = 0.45mm
; top infill extrusion width = 0.40mm
; first layer extrusion width = 0.42mm

M73 P0 R61
M73 Q0 S61
M201 X1000 Y1000 Z200 E5000 ; sets maximum accelerations, mm/sec^2
M203 X200 Y200 Z12 E120 ; sets maximum feedrates, mm / sec
M204 P1250 R1250 T1250 ; sets acceleration (P, T) and retract acceleration (R), mm/sec^2
M205 X8.00 Y8.00 Z0.40 E4.50 ; sets the jerk limits, mm/sec
M205 S0 T0 ; sets the minimum extruding and travel feed rate, mm/sec
M107
;TYPE:Custom
M862.3 P "MK3S" ; printer model check
M862.1 P0.4 ; nozzle diameter check
M115 U3.12.2 ; tell printer latest fw version
G90 ; use absolute coordinates
M83 ; extruder relative mode
M104 S215 ; set extruder temp
M140 S60 ; set bed temp
M190 S60 ; wait for bed temp
M109 S215 ; wait for extruder temp
G28 W ; home all without mesh bed level
G80 ; mesh bed leveling

G1 Z0.2 F720
G1 Y-3 F1000 ; go outside print area
G92 E0
G1 X60 E9 F1000 ; intro line
G1 X100 E12.5 F1000 ; intro line

G92 E0
M221 S95

; Don't change E values below. Excessive value can damage the printer.

M907 E538 ; set extruder motor current
G21 ; set units to millimeters
G90 ; use absolute coordinates
M83 ; use relative distances for extrusion
M900 K0.05 ; Filament gcode LA 1.5
M900 K30 ; Filament gcode LA 1.0
M107
;LAYER_CHANGE
;Z:0.2
;HEIGHT:0.2
;BEFORE_LAYER_CHANGE
G92 E0.0
;0.2


G1 E-.8 F2100
G1 Z.4 F720
;AFTER_LAYER_CHANGE
;0.2
G1 X113.139 Y100.333 F10800
G1 Z.2 F720
G1 E.8 F2100
M204 S800
;TYPE:Skirt/Brim
;WIDTH:0.42
G1 F1200
G1 X114.205 Y99.319 E.04612
G1 X115.5 Y98.996 E.04186
G1 X134.5 Y98.996 E.59573
G1 X135.917 Y99.389 E.04612
G1 X136.931 Y100.455 E.04612
G1 X137.254 Y101.75 E.04186
G1 X137.254 Y108.25 E.2038
G1 X136.861 Y109.667 E.04612
G1 X135.795 Y110.681 E.04612
G1 X134.5 Y111.004 E.04186
G1 X115.5 Y111.004 E.59573
G1 X114.083 Y110.611 E.04612
G1 X113.069 Y109.545 E.04612
G1 X112.746 Y108.25 E.04186
G1 X112.746 Y101.75 E.2038
G1 X113.123 Y100.39 E.04424
M204 S1000
G1 X113.497 Y100.502 F10800
M204 S800
G1 F1200
G1 X113.515 Y100.443 E.00195
G1 X114.56 Y99.567 E.04278
G1 X115.5 Y99.373 E.03008
G1 X134.5 Y99.373 E.59573
G1 X135.807 Y99.765 E.04278
G1 X136.683 Y100.81 E.04278
G1 X136.877 Y101.75 E.03008
G1 X136.877 Y108.25 E.2038
G1 X136.485 Y109.557 E.04278
G1 X135.44 Y110.433 E.04278
G1 X134.5 Y110.627 E.03008
M73 Q0 S60
G1 X115.5 Y110.627 E.59573
G1 X114.193 Y110.235 E.04278
G1 X113.317 Y109.19 E.04278
G1 X113.123 Y108.25 E.03008
G1 X113.123 Y101.75 E.2038
G1 X113.479 Y100.56 E.03895
M204 S1000
; printing object loft_handle2.stl id:0 copy 0
;WIPE_START
G1 F8640
G1 X113.515 Y100.443 E-.0282
G1 X114.56 Y99.567 E-.31505
G1 X115.5 Y99.373 E-.22155
G1 X116.345 Y99.373 E-.1952
;WIPE_END
G1 E-.04 F2100
G1 Z.6 F720
G1 X116.287 Y107.463 F10800
G1 Z.2 F720
G1 E.8 F2100
M204 S800
;TYPE:Perimeter
;WIDTH:0.419999
G1 F1200
G1 X116.287 Y102.537 E.15445
G1 X133.713 Y102.537 E.54637
G1 X133.713 Y107.463 E.15445
G1 X116.347 Y107.463 E.54449
M204 S1000
G1 X115.91 Y107.84 F10800
M204 S800
;TYPE:External perimeter
G1 F1200
G1 X115.91 Y102.16 E.17809
G1 X134.09 Y102.16 E.57002
G1 X134.09 Y107.84 E.17809
G1 X115.97 Y107.84 E.56814
M204 S1000
G1 X116.074 Y107.475 F10800
;WIPE_START
G1 F8640
G1 X115.935 Y104.549 E-.76
;WIPE_END
G1 E-.04 F2100
G1 Z.6 F720
G1 X133.543 Y103.485 F10800
G1 Z.2 F720
G1 E.8 F2100
M204 S800
;TYPE:Solid infill
;WIDTH:0.427381
G1 F1200
G1 X132.935 Y102.876 E.0275
G1 X132.391 Y102.876 E.01738
G1 X133.374 Y103.859 E.04441
G1 X133.374 Y104.402 E.01738
G1 X131.848 Y102.876 E.06899
G1 X131.304 Y102.876 E.01738
G1 X133.374 Y104.946 E.09357
G1 X133.374 Y105.49 E.01738
G1 X130.76 Y102.876 E.11815
G1 X130.216 Y102.876 E.01738
G1 X133.374 Y106.034 E.14273
G1 X133.374 Y106.577 E.01738
G1 X129.673 Y102.876 E.16731
G1 X129.129 Y102.876 E.01738
G1 X133.374 Y107.121 E.19189
G1 X132.832 Y107.124 E.0173
G1 X128.585 Y102.876 E.19201
G1 X128.042 Y102.876 E.01738
G1 X132.289 Y107.124 E.19201
G1 X131.745 Y107.124 E.01738
G1 X127.498 Y102.876 E.19201
G1 X126.954 Y102.876 E.01738
G1 X131.201 Y107.124 E.19201
G1 X130.658 Y107.124 E.01738
G1 X126.41 Y102.876 E.19201
G1 X125.867 Y102.876 E.01738
G1 X130.114 Y107.124 E.19201
G1 X129.57 Y107.124 E.01738
G1 X125.323 Y102.876 E.19201
G1 X124.779 Y102.876 E.01738
G1 X129.026 Y107.124 E.19201
G1 X128.483 Y107.124 E.01738
G1 X124.236 Y102.876 E.19201
G1 X123.692 Y102.876 E.01738
G1 X127.939 Y107.124 E.19201
G1 X127.395 Y107.124 E.01738
G1 X123.148 Y102.876 E.19201
G1 X122.605 Y102.876 E.01738
G1 X126.852 Y107.124 E.19201
G1 X126.308 Y107.124 E.01738
G1 X122.061 Y102.876 E.19201
G1 X121.517 Y102.876 E.01738
G1 X125.764 Y107.124 E.19201
G1 X125.221 Y107.124 E.01738
G1 X120.973 Y102.876 E.19201
G1 X120.43 Y102.876 E.01738
G1 X124.677 Y107.124 E.19201
G1 X124.133 Y107.124 E.01738
G1 X119.886 Y102.876 E.19201
G1 X119.342 Y102.876 E.01738
G1 X123.589 Y107.124 E.19201
G1 X123.046 Y107.124 E.01738
G1 X118.799 Y102.876 E.19201
G1 X118.255 Y102.876 E.01738
G1 X122.502 Y107.124 E.19201
G1 X121.958 Y107.124 E.01738
G1 X117.711 Y102.876 E.19201
G1 X117.167 Y102.876 E.01738
G1 X121.415 Y107.124 E.19201
G1 X120.871 Y107.124 E.01738
G1 X116.626 Y102.879 E.19189
G1 X116.626 Y103.423 E.01738
G1 X120.327 Y107.124 E.16731
G1 X119.783 Y107.124 E.01738
G1 X116.626 Y103.967 E.14273
G1 X116.626 Y104.51 E.01738
G1 X119.24 Y107.124 E.11814
G1 X118.696 Y107.124 E.01738
G1 X116.626 Y105.054 E.09356
G1 X116.626 Y105.598 E.01738
G1 X118.152 Y107.124 E.06898
G1 X117.609 Y107.124 E.01738
G1 X116.626 Y106.141 E.0444
G1 X116.626 Y106.685 E.01738
G1 X117.235 Y107.293 E.02749
M204 S1000
; stop printing object loft_handle2.stl id:0 copy 0
M106 S84.15
;LAYER_CHANGE
;Z:0.35
;HEIGHT:0.15
;BEFORE_LAYER_CHANGE
G92 E0.0
;0.35


;WIPE_START
G1 F8640
G1 X116.626 Y106.685 E-.19857
G1 X116.626 Y106.141 E-.12554
G1 X117.609 Y107.124 E-.32071
G1 X118.107 Y107.124 E-.11517
;WIPE_END
G1 E-.04 F2100
G1 Z.6 F720
;AFTER_LAYER_CHANGE
;0.35
G1 X118.107 Y111.004 F10800
G1 Z.35 F720
G1 E.8 F2100
;TYPE:Skirt/Brim
;WIDTH:0.42
G1 F2820
G1 X115.5 Y111.004 E.06306
G1 X114.083 Y110.611 E.03557
G1 X113.069 Y109.545 E.03557
G1 X112.746 Y108.25 E.03229
G1 X112.746 Y101.75 E.1572
G1 X113.139 Y100.333 E.03557
G1 X114.205 Y99.319 E.03557
G1 X115.5 Y98.996 E.03229
G1 X134.5 Y98.996 E.45951
G1 X135.917 Y99.389 E.03557
G1 X136.931 Y100.455 E.03557
G1 X137.254 Y101.75 E.03229
G1 X137.254 Y108.25 E.1572
G1 X136.861 Y109.667 E.03557
G1 X135.795 Y110.681 E.03557
G1 X134.5 Y111.004 E.03229
G1 X118.167 Y111.004 E.395
G1 X118.167 Y110.627 F10800
G1 F2820
G1 X115.5 Y110.627 E.06451
G1 X114.193 Y110.235 E.033
G1 X113.317 Y109.19 E.033
G1 X113.123 Y108.25 E.02321
G1 X113.123 Y101.75 E.1572
G1 X113.515 Y100.443 E.033
G1 X114.56 Y99.567 E.033
G1 X115.5 Y99.373 E.02321
G1 X134.5 Y99.373 E.45951
G1 X135.807 Y99.765 E.033
G1 X136.683 Y100.81 E.033
G1 X136.877 Y101.75 E.02321
G1 X136.877 Y108.25 E.1572
G1 X136.485 Y109.557 E.033
G1 X135.44 Y110.433 E.033
G1 X134.5 Y110.627 E.02321
G1 X118.227 Y110.627 E.39355
; printing object loft_handle2.stl id:0 copy 0
;WIPE_START
G1 F8640
G1 X115.5 Y110.627 E-.62975
G1 X114.96 Y110.465 E-.13025
;WIPE_END
G1 E-.04 F2100
G1 Z.75 F720
G1 X116.143 Y107.607 F10800
G1 Z.35 F720
G1 E.8 F2100
M204 S800
;TYPE:Perimeter
;WIDTH:0.449999
G1 F2820
G1 X116.143 Y102.393 E.13586
G1 X133.857 Y102.393 E.46156
G1 X133.857 Y107.607 E.13586
G1 X116.203 Y107.607 E.46
M204 S1000
G1 X115.725 Y108.025 F10800
M204 S800
;TYPE:External perimeter
G1 F2100
G1 X115.725 Y101.975 E.15764
G1 X134.275 Y101.975 E.48333
G1 X134.275 Y108.025 E.15764
M73 Q1 S60
G1 X115.785 Y108.025 E.48177
M204 S1000
G1 X115.888 Y107.66 F10800
;WIPE_START
M73 P1 R61
G1 F8640
G1 X115.752 Y104.734 E-.76
;WIPE_END
G1 E-.04 F2100
G1 Z.75 F720
G1 X132.808 Y107.419 F10800
G1 Z.35 F720
G1 E.8 F2100
;TYPE:Solid infill
;WIDTH:0.457605
G1 F2820
G1 X133.481 Y106.746 E.02524
G1 X133.481 Y106.145 E.01596
G1 X132.395 Y107.231 E.04076
G1 X131.793 Y107.231 E.01596
G1 X133.481 Y105.543 E.06333
G1 X133.481 Y104.942 E.01596
G1 X131.192 Y107.231 E.0859
G1 X130.59 Y107.231 E.01596
G1 X133.481 Y104.34 E.10848
G1 X133.481 Y103.738 E.01596
G1 X129.988 Y107.231 E.13105
G1 X129.387 Y107.231 E.01596
G1 X133.481 Y103.137 E.15362
G1 X133.481 Y102.769 E.00976
G1 X133.247 Y102.769 E.0062
G1 X128.785 Y107.231 E.16742
G1 X128.183 Y107.231 E.01596
G1 X132.646 Y102.769 E.16742
G1 X132.044 Y102.769 E.01596
G1 X127.582 Y107.231 E.16742
G1 X126.98 Y107.231 E.01596
G1 X131.443 Y102.769 E.16742
G1 X130.841 Y102.769 E.01596
G1 X126.379 Y107.231 E.16742
G1 X125.777 Y107.231 E.01596
G1 X130.239 Y102.769 E.16742
G1 X129.638 Y102.769 E.01596
G1 X125.175 Y107.231 E.16742
G1 X124.574 Y107.231 E.01596
G1 X129.036 Y102.769 E.16742
G1 X128.434 Y102.769 E.01596
G1 X123.972 Y107.231 E.16742
G1 X123.37 Y107.231 E.01596
G1 X127.833 Y102.769 E.16742
G1 X127.231 Y102.769 E.01596
G1 X122.769 Y107.231 E.16742
G1 X122.167 Y107.231 E.01596
G1 X126.629 Y102.769 E.16742
G1 X126.028 Y102.769 E.01596
G1 X121.566 Y107.231 E.16742
G1 X120.964 Y107.231 E.01596
G1 X125.426 Y102.769 E.16742
G1 X124.825 Y102.769 E.01596
G1 X120.362 Y107.231 E.16742
G1 X119.761 Y107.231 E.01596
G1 X124.223 Y102.769 E.16742
G1 X123.621 Y102.769 E.01596
G1 X119.159 Y107.231 E.16742
G1 X118.557 Y107.231 E.01596
G1 X123.02 Y102.769 E.16742
G1 X122.418 Y102.769 E.01596
G1 X117.956 Y107.231 E.16742
G1 X117.354 Y107.231 E.01596
G1 X121.816 Y102.769 E.16742
G1 X121.215 Y102.769 E.01596
G1 X116.753 Y107.231 E.16742
G1 X116.519 Y107.231 E.0062
G1 X116.519 Y106.863 E.00976
G1 X120.613 Y102.769 E.15362
G1 X120.012 Y102.769 E.01596
G1 X116.519 Y106.262 E.13105
G1 X116.519 Y105.66 E.01596
G1 X119.41 Y102.769 E.10847
G1 X118.808 Y102.769 E.01596
G1 X116.519 Y105.058 E.0859
G1 X116.519 Y104.457 E.01596
G1 X118.207 Y102.769 E.06333
G1 X117.605 Y102.769 E.01596
G1 X116.519 Y103.855 E.04075
G1 X116.519 Y103.253 E.01596
G1 X117.191 Y102.581 E.02524
; stop printing object loft_handle2.stl id:0 copy 0
M106 S170.85
;LAYER_CHANGE
;Z:0.5
;HEIGHT:0.15
;BEFORE_LAYER_CHANGE
G92 E0.0
;0.5


;WIPE_START
G1 F8640
G1 X116.519 Y103.253 E-.21964
G1 X116.519 Y103.855 E-.13892
G1 X117.605 Y102.769 E-.35471
G1 X117.807 Y102.769 E-.04673
;WIPE_END
G1 E-.04 F2100
G1 Z.75 F720
;AFTER_LAYER_CHANGE
;0.5
G1 X117.807 Y98.996 F10800
G1 Z.5 F720
G1 E.8 F2100
;TYPE:Skirt/Brim
;WIDTH:0.42
G1 F2829
G1 X134.5 Y98.996 E.40371
G1 X135.917 Y99.389 E.03557
G1 X136.931 Y100.455 E.03557
G1 X137.254 Y101.75 E.03229
G1 X137.254 Y108.25 E.1572
G1 X136.861 Y109.667 E.03557
G1 X135.795 Y110.681 E.03557
G1 X134.5 Y111.004 E.03229
G1 X115.5 Y111.004 E.45951
G1 X114.083 Y110.611 E.03557
G1 X113.069 Y109.545 E.03557
G1 X112.746 Y108.25 E.03229
G1 X112.746 Y101.75 E.1572
G1 X113.139 Y100.333 E.03557
G1 X114.205 Y99.319 E.03557
G1 X115.5 Y98.996 E.03229
G1 X117.747 Y98.996 E.05435
G1 X117.747 Y99.373 F10800
G1 F2829
G1 X134.5 Y99.373 E.40516
G1 X135.807 Y99.765 E.033
G1 X136.683 Y100.81 E.033
G1 X136.877 Y101.75 E.02321
G1 X136.877 Y108.25 E.1572
G1 X136.485 Y109.557 E.033
M73 P1 R60
G1 X135.44 Y110.433 E.033
G1 X134.5 Y110.627 E.02321
G1 X115.5 Y110.627 E.45951
G1 X114.193 Y110.235 E.033
G1 X113.317 Y109.19 E.033
G1 X113.123 Y108.25 E.02321
G1 X113.123 Y101.75 E.1572
G1 X113.515 Y100.443 E.033
G1 X114.56 Y99.567 E.033
G1 X115.5 Y99.373 E.02321
G1 X117.687 Y99.373 E.0529
; printing object loft_handle2.stl id:0 copy 0
;WIPE_START
G1 F8640
G1 X120.979 Y99.373 E-.76
;WIPE_END
G1 E-.04 F2100
G1 Z.9 F720
G1 X116.143 Y107.607 F10800
G1 Z.5 F720
G1 E.8 F2100
M204 S800
;TYPE:Perimeter
;WIDTH:0.449999
G1 F2829
G1 X116.143 Y102.393 E.13586
G1 X133.857 Y102.393 E.46156
G1 X133.857 Y107.607 E.13586
G1 X116.203 Y107.607 E.46
M204 S1000
G1 X115.725 Y108.025 F10800
M204 S800
;TYPE:External perimeter
G1 F2100
G1 X115.725 Y101.975 E.15764
G1 X134.275 Y101.975 E.48333
G1 X134.275 Y108.025 E.15764
G1 X115.785 Y108.025 E.48177
M204 S1000
G1 X115.888 Y107.66 F10800
;WIPE_START
G1 F8640
G1 X115.752 Y104.734 E-.76
;WIPE_END
G1 E-.04 F2100
G1 Z.9 F720
G1 X133.669 Y103.442 F10800
G1 Z.5 F720
G1 E.8 F2100
;TYPE:Solid infill
;WIDTH:0.457605
G1 F2829
G1 X132.996 Y102.769 E.02524
G1 X132.395 Y102.769 E.01596
G1 X133.481 Y103.855 E.04076
G1 X133.481 Y104.457 E.01596
G1 X131.793 Y102.769 E.06333
G1 X131.192 Y102.769 E.01596
G1 X133.481 Y105.058 E.0859
G1 X133.481 Y105.66 E.01596
G1 X130.59 Y102.769 E.10848
G1 X129.988 Y102.769 E.01596
G1 X133.481 Y106.262 E.13105
G1 X133.481 Y106.863 E.01596
G1 X129.387 Y102.769 E.15362
G1 X128.785 Y102.769 E.01596
G1 X133.247 Y107.231 E.16742
G1 X132.646 Y107.231 E.01596
G1 X128.183 Y102.769 E.16742
G1 X127.582 Y102.769 E.01596
G1 X132.044 Y107.231 E.16742
G1 X131.443 Y107.231 E.01596
G1 X126.98 Y102.769 E.16742
G1 X126.379 Y102.769 E.01596
G1 X130.841 Y107.231 E.16742
G1 X130.239 Y107.231 E.01596
G1 X125.777 Y102.769 E.16742
G1 X125.175 Y102.769 E.01596
G1 X129.638 Y107.231 E.16742
G1 X129.036 Y107.231 E.01596
G1 X124.574 Y102.769 E.16742
G1 X123.972 Y102.769 E.01596
G1 X128.434 Y107.231 E.16742
G1 X127.833 Y107.231 E.01596
G1 X123.37 Y102.769 E.16742
G1 X122.769 Y102.769 E.01596
G1 X127.231 Y107.231 E.16742
G1 X126.629 Y107.231 E.01596
G1 X122.167 Y102.769 E.16742
G1 X121.566 Y102.769 E.01596
G1 X126.028 Y107.231 E.16742
G1 X125.426 Y107.231 E.01596
G1 X120.964 Y102.769 E.16742
G1 X120.362 Y102.769 E.01596
G1 X124.825 Y107.231 E.16742
G1 X124.223 Y107.231 E.01596
G1 X119.761 Y102.769 E.16742
G1 X119.159 Y102.769 E.01596
G1 X123.621 Y107.231 E.16742
G1 X123.02 Y107.231 E.01596
G1 X118.557 Y102.769 E.16742
G1 X117.956 Y102.769 E.01596
G1 X122.418 Y107.231 E.16742
G1 X121.816 Y107.231 E.01596
G1 X117.354 Y102.769 E.16742
G1 X116.753 Y102.769 E.01596
G1 X121.215 Y107.231 E.16742
G1 X120.613 Y107.231 E.01596
G1 X116.519 Y103.137 E.15362
G1 X116.519 Y103.738 E.01596
G1 X120.012 Y107.231 E.13105
G1 X119.41 Y107.231 E.01596
G1 X116.519 Y104.34 E.10847
G1 X116.519 Y104.942 E.01596
G1 X118.808 Y107.231 E.0859
G1 X118.207 Y107.231 E.01596
G1 X116.519 Y105.543 E.06333
G1 X116.519 Y106.145 E.01596
G1 X117.605 Y107.231 E.04075
G1 X117.003 Y107.231 E.01596
G1 X116.331 Y106.559 E.02524
; stop printing object loft_handle2.stl id:0 copy 0
M106 S255
;LAYER_CHANGE
;Z:0.65
;HEIGHT:0.15
;BEFORE_LAYER_CHANGE
G92 E0.0
;0.65


;WIPE_START
G1 F8640
G1 X117.003 Y107.231 E-.21964
G1 X117.605 Y107.231 E-.13892
G1 X116.519 Y106.145 E-.35471
G1 X116.519 Y105.943 E-.04673
;WIPE_END
G1 E-.04 F2100
G1 Z.9 F720
;AFTER_LAYER_CHANGE
;0.65
; printing object loft_handle2.stl id:0 copy 0
G1 X116.143 Y107.607 F10800
G1 Z.65 F720
G1 E.8 F2100
M204 S800
;TYPE:Perimeter
;WIDTH:0.449999
G1 F1834
G1 X116.143 Y102.393 E.13586
G1 X133.857 Y102.393 E.46156
G1 X133.857 Y107.607 E.13586
G1 X116.203 Y107.607 E.46
M204 S1000
G1 X115.725 Y108.025 F10800
M204 S800
;TYPE:External perimeter
G1 F1834
G1 X115.725 Y101.975 E.15764
G1 X134.275 Y101.975 E.48333
G1 X134.275 Y108.025 E.15764
G1 X115.785 Y108.025 E.48177
M204 S1000
G1 X115.888 Y107.66 F10800
;WIPE_START
G1 F8640
G1 X115.752 Y104.734 E-.76
;WIPE_END
G1 E-.04 F2100
G1 Z1.05 F720
G1 X132.808 Y107.419 F10800
G1 Z.65 F720
G1 E.8 F2100
;TYPE:Solid infill
;WIDTH:0.457605
G1 F1834
G1 X133.481 Y106.746 E.02524
G1 X133.481 Y106.145 E.01596
G1 X132.395 Y107.231 E.04076
G1 X131.793 Y107.231 E.01596
G1 X133.481 Y105.543 E.06333
G1 X133.481 Y104.942 E.01596
G1 X131.192 Y107.231 E.0859
G1 X130.59 Y107.231 E.01596
G1 X133.481 Y104.34 E.10848
G1 X133.481 Y103.738 E.01596
G1 X129.988 Y107.231 E.13105
G1 X129.387 Y107.231 E.01596
G1 X133.481 Y103.137 E.15362
G1 X133.481 Y102.769 E.00976
G1 X133.247 Y102.769 E.0062
G1 X128.785 Y107.231 E.16742
G1 X128.183 Y107.231 E.01596
G1 X132.646 Y102.769 E.16742
G1 X132.044 Y102.769 E.01596
G1 X127.582 Y107.231 E.16742
G1 X126.98 Y107.231 E.01596
G1 X131.443 Y102.769 E.16742
G1 X130.841 Y102.769 E.01596
G1 X126.379 Y107.231 E.16742
G1 X125.777 Y107.231 E.01596
G1 X130.239 Y102.769 E.16742
G1 X129.638 Y102.769 E.01596
