; generated by PrusaSlicer 2.5.2+linux-x64-GTK3 on 2024-05-22 at 11:46:23 UTC


;
;

;
;

;
;
; 

; external perimeters extrusion width = 0.40mm
; perimeters extrusion width = 0.40mm
; infill extrusion width = 0.40mm
; solid infill extrusion width = 0.40mm
; top infill extrusion width = 0.40mm
; first layer extrusion width = 0.45mm

M73 P0 R61
M201 X2500 Y2500 Z200 E2500 ; sets maximum accelerations, mm/sec^2
M203 X200 Y200 Z40 E100 ; sets maximum feedrates, mm / sec
M204 P2000 R1200 T2000 ; sets acceleration (P, T) and retract acceleration (R), mm/sec^2
M205 X8.00 Y8.00 Z2.00 E10.00 ; sets the jerk limits, mm/sec
M205 S0 T0 ; sets the minimum extruding and travel feed rate, mm/sec
M107
;TYPE:Custom
M17 ; enable steppers
M862.3 P "MK4" ; printer model check
M862.1 P0.4 ; nozzle diameter check
M330 SYSLOG
M331 loadcell_raw
M331 loadcell_threshold
M331 loadcell_hysteresis
M331 loadcell_scale
M331 probe_z
M331 probe_z_raw
M331 probe_z_diff
M331 home_diff
M331 fsensor_raw
M331 temp_hbr
M331 temp_bed
M331 temp_noz
M331 temp_brd
M331 ttemp_bed
M331 ttemp_noz
M331 pos_z
M331 fan_speed
M331 fan_hbr_speed
M331 tmc_sg_x
M331 tmc_sg_y
M331 tmc_sg_z
M331 tmc_sg_e

M555 X114.75 Y87.7206 W32 H30.5589

G90 ; use absolute coordinates
M92 E380 ; set steps/mm for extruder
M83 ; extruder relative mode

M140 S60 ; set bed temp

M104 S170 ; set extruder temp for bed leveling
M109 R170 ; wait for temp


M84 E ; turn off E motor

G28 ; home all without mesh bed level

; probe to clean the nozzle
G1 X146.75 Y87.7206 Z5 F4800

M302 S160 ; lower cold extrusion limit to 160C


G1 E-2 F2400 ; retraction


M84 E ; turn off E motor

G29 P9 X114.75 Y87.7206 W32 H4

M106 S100

G0 X114.75 Y87.7206 Z40 F10000

M190 S60 ; wait for bed temp

M107

;
; MBL
;
M84 E ; turn off E motor
G29 ; mesh bed leveling
M104 S215 ; set extruder temp
G0 X114.75 Y87.2206 Z30 F4800

M109 S215 ; wait for extruder temp
G1 Z0.2 F720
G92 E0

M569 S0 E ; set spreadcycle mode for extruder

;
; Extrude purge line
;

G1 E2 F2400 ; deretraction


; move right
G1 X146.75 E4.8 F1000
; move down
G1 Y85.7206 E0.225 F1000
; move left
G1 X114.75 E9.6 F800

G92 E0
M221 S100 ; set flow to 100%
G21 ; set units to millimeters
G90 ; use absolute coordinates
M83 ; use relative distances for extrusion
M900 K0.06 ; Filament gcode

M142 S36 ; set heatbreak target temp
M107
;LAYER_CHANGE
;Z:0.2
;HEIGHT:0.2
;BEFORE_LAYER_CHANGE
G92 E0.0
;0.2


G1 E-.8 F2100
G1 Z.2 F720
;AFTER_LAYER_CHANGE
;0.2
; printing object for_adjustable_23mm.stl id:0 copy 0
G1 Z.4
G1 X125.303 Y94.152 F12000
G1 Z.2 F720
G1 E.8 F1500
M204 P600
;TYPE:Perimeter
;WIDTH:0.630992
G1 F1200
G1 X125.204 Y94.154 E.00482
;WIDTH:0.584722
G1 X125.105 Y94.156 E.00444
;WIDTH:0.538452
G1 X125.007 Y94.158 E.00406
;WIDTH:0.492181
G1 X124.372 Y94.129 E.02375
;WIDTH:0.449999
G1 X123.484 Y94.115 E.03007
;WIDTH:0.491193
G1 X123.12 Y94.146 E.01362
;WIDTH:0.532387
G1 X122.755 Y94.178 E.01487
;WIDTH:0.573581
G1 X122.391 Y94.209 E.01613
;WIDTH:0.614774
G1 X122.027 Y94.241 E.01738
G1 X122.128 Y94.159 E.00619
;WIDTH:0.573581
G1 X122.229 Y94.076 E.00574
;WIDTH:0.532387
G1 X122.33 Y93.994 E.0053
;WIDTH:0.491193
G1 X122.431 Y93.912 E.00485
;WIDTH:0.449999
G1 X123.75 Y93.151 E.05153
G1 X124.589 Y93.636 E.0328
;WIDTH:0.492181
G1 X125.075 Y93.941 E.02143
;WIDTH:0.538452
G1 X125.151 Y94.011 E.00427
;WIDTH:0.584722
G1 X125.227 Y94.082 E.00467
;WIDTH:0.630992
G1 X125.259 Y94.111 E.00213
M204 P800
G1 E-.64 F2100
;WIPE_START
G1 F9600
G1 X125.204 Y94.154 E-.0144
G1 X125.105 Y94.156 E-.02048
G1 X125.007 Y94.158 E-.02048
G1 X124.542 Y94.137 E-.09663
;WIPE_END
G1 E-.008 F2100
G1 Z.4 F720
G1 X121.866 Y94.344 F12000
G1 Z.2 F720
G1 E.8 F1500
M204 P600
;WIDTH:0.631446
G1 F1200
G1 X121.815 Y94.465 E.00642
;WIDTH:0.58771
G1 X121.765 Y94.586 E.00595
;WIDTH:0.543973
G1 X121.714 Y94.707 E.00547
;WIDTH:0.500236
G1 X121.664 Y94.828 E.00499
;WIDTH:0.456499
G1 X121.614 Y94.949 E.00451
;WIDTH:0.412762
G1 X121.432 Y94.765 E.00796
G1 X121.025 Y94.702 E.01265
G1 X121.45 Y94.457 E.0151
;WIDTH:0.456499
G1 X121.533 Y94.434 E.00296
;WIDTH:0.500236
G1 X121.616 Y94.412 E.00327
;WIDTH:0.543973
G1 X121.699 Y94.389 E.00359
;WIDTH:0.58771
G1 X121.782 Y94.366 E.0039
;WIDTH:0.631446
G1 X121.808 Y94.359 E.00128
M204 P800
G1 E-.64 F2100
;WIPE_START
G1 F9600
G1 X121.815 Y94.465 E-.02196
G1 X121.765 Y94.586 E-.02728
G1 X121.714 Y94.707 E-.02728
G1 X121.664 Y94.828 E-.02728
G1 X121.614 Y94.949 E-.02728
G1 X121.543 Y94.878 E-.02094
;WIPE_END
G1 E-.008 F2100
G1 Z.4 F720
G1 X118.236 Y95.976 F12000
G1 Z.2 F720
G1 E.8 F1500
M204 P600
;WIDTH:0.643912
G1 F1200
G1 X118.198 Y96.131 E.00799
;WIDTH:0.595434
G1 X118.16 Y96.287 E.00735
;WIDTH:0.546956
G1 X118.122 Y96.442 E.0067
;WIDTH:0.498478
G1 X118.084 Y96.597 E.00606
;WIDTH:0.449999
G1 X118.214 Y97.078 E.01684
G1 X117.658 Y97.107 E.01884
G1 X117.51 Y97.016 E.00586
G1 X116.948 Y97.047 E.01904
;WIDTH:0.442006
G1 X116.792 Y97.165 E.0065
G1 X115.837 Y97.243 E.03178
G1 X116.754 Y96.709 E.03519
;WIDTH:0.449999
G1 X117.481 Y96.299 E.02825
;WIDTH:0.498478
G1 X117.669 Y96.219 E.00778
;WIDTH:0.546956
G1 X117.858 Y96.138 E.00861
;WIDTH:0.595434
G1 X118.047 Y96.057 E.00943
;WIDTH:0.643912
G1 X118.18 Y95.999 E.00726
M204 P800
G1 X117.708 Y96.606 F12000
M204 P600
;WIDTH:0.445484
G1 F1200
G1 X117.658 Y96.606 E.00168
G1 X117.633 Y96.65 E.00168
G1 X117.658 Y96.694 E.00168
G1 X117.708 Y96.694 E.00168
G1 X117.733 Y96.65 E.00168
M204 P800
G1 E-.64 F2100
;WIPE_START
G1 F9600
G1 X117.708 Y96.694 E-.01046
G1 X117.658 Y96.694 E-.01046
G1 X117.633 Y96.65 E-.01046
G1 X117.658 Y96.606 E-.01046
G1 X117.708 Y96.606 E-.01046
;WIPE_END
G1 E-.10771 F2100
G1 Z.4 F720
G1 X126.477 Y94.705 F12000
G1 Z.2 F720
G1 E.8 F1500
M204 P600
;WIDTH:0.412536
G1 F1200
G1 X126.068 Y94.765 E.01273
G1 X125.886 Y94.95 E.00796
G1 X125.795 Y94.707 E.00796
;WIDTH:0.452894
G1 X125.731 Y94.614 E.00387
;WIDTH:0.493252
G1 X125.666 Y94.521 E.00425
;WIDTH:0.533609
G1 X125.602 Y94.427 E.00463
;WIDTH:0.573967
G1 X125.537 Y94.334 E.00501
;WIDTH:0.614324
G1 X125.472 Y94.241 E.00539
G1 X125.588 Y94.284 E.00585
;WIDTH:0.573967
G1 X125.703 Y94.327 E.00544
;WIDTH:0.533609
G1 X125.818 Y94.371 E.00503
;WIDTH:0.493252
G1 X125.934 Y94.414 E.00461
;WIDTH:0.452894
G1 X126.049 Y94.457 E.0042
;WIDTH:0.412536
G1 X126.425 Y94.675 E.01335
M204 P800
G1 E-.64 F2100
;WIPE_START
G1 F9600
G1 X126.068 Y94.765 E-.0767
G1 X125.886 Y94.95 E-.0538
G1 X125.85 Y94.853 E-.0215
;WIPE_END
G1 E-.008 F2100
G1 Z.4 F720
G1 X128.653 Y95.61 F12000
G1 Z.2 F720
G1 E.8 F1500
M204 P600
;WIDTH:0.619875
G1 F1200
G1 X128.587 Y95.608 E.00318
;WIDTH:0.576416
G1 X128.521 Y95.605 E.00294
;WIDTH:0.532956
G1 X128.454 Y95.603 E.0027
;WIDTH:0.489496
G1 X128.388 Y95.6 E.00246
;WIDTH:0.446037
G1 X128.322 Y95.597 E.00222
;WIDTH:0.402577
G1 X128.256 Y95.595 E.00198
;WIDTH:0.383404
G1 X127.781 Y95.361 E.01498
;WIDTH:0.424885
G1 X127.33 Y95.172 E.01553
;WIDTH:0.466366
G1 X126.879 Y94.983 E.01721
G1 X126.301 Y95.076 E.02063
;WIDTH:0.449999
G1 X126.15 Y95.239 E.0075
G1 X125.828 Y95.751 E.02049
G1 X125.613 Y95.706 E.00743
G1 X125.527 Y95.106 E.02049
G1 X125.456 Y94.896 E.0075
G1 X125.228 Y94.665 E.01101
G1 X124.972 Y94.585 E.00907
G1 X124.364 Y94.536 E.02066
G1 X123.51 Y94.521 E.0289
G1 X122.538 Y94.584 E.03297
G1 X122.272 Y94.665 E.0094
G1 X122.044 Y94.896 E.011
G1 X121.973 Y95.106 E.00751
G1 X121.886 Y95.706 E.02049
G1 X121.672 Y95.751 E.00743
G1 X121.349 Y95.239 E.02049
G1 X121.199 Y95.076 E.00751
G1 X120.63 Y94.988 E.01947
G1 X120.062 Y95.21 E.02063
;WIDTH:0.410543
G1 X119.604 Y95.426 E.0155
;WIDTH:0.382562
G1 X119.145 Y95.643 E.01432
;WIDTH:0.403858
G1 X119.075 Y95.652 E.00213
;WIDTH:0.453135
G1 X119.004 Y95.662 E.00242
;WIDTH:0.502412
G1 X118.934 Y95.671 E.00272
;WIDTH:0.551689
G1 X118.863 Y95.68 E.00301
;WIDTH:0.600966
G1 X118.793 Y95.689 E.0033
;WIDTH:0.650242
G1 X118.723 Y95.698 E.00359
G1 X118.768 Y95.644 E.00359
;WIDTH:0.600966
G1 X118.813 Y95.589 E.0033
;WIDTH:0.551689
G1 X118.859 Y95.534 E.00301
;WIDTH:0.502412
G1 X118.904 Y95.48 E.00272
;WIDTH:0.453135
G1 X118.95 Y95.425 E.00242
;WIDTH:0.403858
G1 X118.995 Y95.37 E.00213
;WIDTH:0.360398
G1 X119.192 Y95.26 E.00595
;WIDTH:0.387313
G1 X119.566 Y95.059 E.01217
;WIDTH:0.414228
G1 X119.941 Y94.859 E.01312
;WIDTH:0.449999
G1 X120.446 Y94.588 E.01941
G1 X123.75 Y92.681 E.1291
G1 X126.243 Y94.121 E.09746
;WIDTH:0.466051
G1 X127.061 Y94.602 E.03339
G1 X127.493 Y94.828 E.01715
;WIDTH:0.424728
G1 X127.925 Y95.054 E.01548
;WIDTH:0.383404
G1 X128.402 Y95.315 E.01538
;WIDTH:0.402577
G1 X128.444 Y95.364 E.00193
;WIDTH:0.446037
G1 X128.486 Y95.413 E.00217
;WIDTH:0.489496
G1 X128.528 Y95.463 E.0024
;WIDTH:0.532956
G1 X128.569 Y95.512 E.00263
;WIDTH:0.576416
G1 X128.611 Y95.561 E.00287
;WIDTH:0.619875
G1 X128.614 Y95.565 E.00022
M204 P800
G1 E-.64 F2100
;WIPE_START
G1 F9600
G1 X128.587 Y95.608 E-.01062
G1 X128.521 Y95.605 E-.01378
G1 X128.454 Y95.603 E-.01378
G1 X128.388 Y95.6 E-.01378
G1 X128.322 Y95.597 E-.01378
G1 X128.256 Y95.595 E-.01378
G1 X127.943 Y95.44 E-.0725
;WIPE_END
G1 E-.008 F2100
G1 Z.4 F720
G1 X122.027 Y94.241 F12000
G1 Z.2 F720
G1 E.8 F1500
M204 P600
;WIDTH:0.631446
G1 F1200
G1 X121.866 Y94.344 E.00938
M204 P800
G1 E-.64 F2100
;WIPE_START
G1 F9600
G1 X122.027 Y94.241 E-.03984
;WIPE_END
G1 E-.12016 F2100
G1 Z.4 F720
G1 X125.472 Y94.241 F12000
G1 Z.2 F720
G1 E.8 F1500
M204 P600
;WIDTH:0.630992
G1 F1200
G1 X125.303 Y94.152 E.00937
M204 P800
G1 E-.64 F2100
;WIPE_START
G1 F9600
G1 X125.472 Y94.241 E-.03983
;WIPE_END
G1 E-.12017 F2100
G1 Z.4 F720
G1 X132.016 Y97.924 F12000
G1 Z.2 F720
G1 E.8 F1500
M204 P600
;WIDTH:0.449999
G1 F1200
G1 X134.011 Y99.076 E.07798
G1 X134.011 Y101.361 E.07735
G1 X133.66 Y100.478 E.03217
G1 X133.164 Y99.941 E.02472
G1 X132.943 Y99.863 E.00795
G1 X132.662 Y99.855 E.00952
G1 X132.795 Y99.607 E.00952
G1 X132.838 Y99.376 E.00795
G1 X132.631 Y98.692 E.02418
G1 X132.053 Y97.971 E.0313
M204 P800
G1 E-.64 F2100
;WIPE_START
G1 F9600
G1 X132.69 Y98.33 E-.152
;WIPE_END
G1 E-.008 F2100
G1 Z.4 F720
G1 X129.379 Y96.5 F12000
G1 Z.2 F720
G1 E.8 F1500
M204 P600
;WIDTH:0.495537
G1 F1200
G1 X129.352 Y96.426 E.00297
;WIDTH:0.541075
G1 X129.288 Y96.254 E.00759
;WIDTH:0.586613
G1 X129.224 Y96.082 E.00828
;WIDTH:0.63215
G1 X129.161 Y95.911 E.00898
G1 X129.375 Y96.008 E.01154
;WIDTH:0.586613
G1 X129.589 Y96.105 E.01065
;WIDTH:0.541075
G1 X129.804 Y96.203 E.00975
;WIDTH:0.495537
G1 X130.018 Y96.3 E.00886
;WIDTH:0.449999
G1 X134.418 Y98.841 E.17197
G1 X134.425 Y103.223 E.14835
G1 X134.418 Y103.921 E.02362
;WIDTH:0.495536
G1 X134.395 Y104.156 E.00886
;WIDTH:0.541073
G1 X134.373 Y104.39 E.00975
;WIDTH:0.58661
G1 X134.35 Y104.624 E.01065
;WIDTH:0.632146
G1 X134.327 Y104.859 E.01154
G1 X134.21 Y104.718 E.00898
;WIDTH:0.58661
G1 X134.093 Y104.577 E.00828
;WIDTH:0.541073
G1 X133.976 Y104.436 E.00759
;WIDTH:0.495536
G1 X133.859 Y104.295 E.0069
;WIDTH:0.449999
G1 X133.188 Y104.118 E.02348
G1 X133.165 Y103.9 E.00743
G1 X133.785 Y103.588 E.02348
G1 X134.034 Y103.189 E.01591
;WIDTH:0.441629
G1 X134.029 Y102.945 E.0081
;WIDTH:0.449999
G1 X133.891 Y102.35 E.02066
G1 X133.642 Y101.534 E.0289
G1 X133.281 Y100.628 E.03297
G1 X132.984 Y100.307 E.01483
G1 X132.851 Y100.259 E.00477
G1 X132.61 Y100.253 E.00817
G1 X132.014 Y100.356 E.02049
G1 X131.904 Y100.166 E.00743
G1 X132.291 Y99.7 E.02049
G1 X132.406 Y99.488 E.00817
G1 X132.432 Y99.35 E.00477
G1 X132.308 Y98.939 E.01451
G1 X131.937 Y98.455 E.02066
G1 X131.377 Y97.81 E.0289
G1 X130.677 Y97.132 E.03298
;WIDTH:0.443264
G1 X130.46 Y96.999 E.00847
;WIDTH:0.449999
G1 X129.99 Y97.015 E.01591
G1 X129.41 Y97.396 E.02348
G1 X129.233 Y97.267 E.00743
G1 X129.415 Y96.598 E.02348
;WIDTH:0.495537
G1 X129.4 Y96.556 E.00167
M204 P800
G1 X129.841 Y96.607 F12000
M204 P600
;WIDTH:0.444334
G1 F1200
G1 X129.791 Y96.607 E.00167
G1 X129.766 Y96.651 E.00167
G1 X129.791 Y96.694 E.00167
G1 X129.841 Y96.694 E.00167
G1 X129.866 Y96.651 E.00167
M204 P800
G1 E-.64 F2100
;WIPE_START
G1 F9600
G1 X129.841 Y96.694 E-.01043
G1 X129.791 Y96.694 E-.01043
G1 X129.766 Y96.651 E-.01043
G1 X129.791 Y96.607 E-.01043
G1 X129.841 Y96.607 E-.01043
;WIPE_END
G1 E-.10786 F2100
G1 Z.4 F720
G1 X134.039 Y103.878 F12000
G1 Z.2 F720
G1 E.8 F1500
M204 P600
;WIDTH:0.444336
G1 F1200
G1 X133.989 Y103.878 E.00167
G1 X133.964 Y103.921 E.00167
G1 X133.989 Y103.965 E.00167
G1 X134.039 Y103.965 E.00167
G1 X134.064 Y103.921 E.00167
M204 P800
G1 E-.64 F2100
;WIPE_START
G1 F9600
G1 X134.039 Y103.965 E-.01043
G1 X133.989 Y103.965 E-.01043
G1 X133.964 Y103.921 E-.01043
G1 X133.989 Y103.878 E-.01043
G1 X134.039 Y103.878 E-.01043
;WIPE_END
G1 E-.10786 F2100
G1 Z.4 F720
G1 X134.03 Y107.79 F12000
G1 Z.2 F720
G1 E.8 F1500
M204 P600
;WIDTH:0.412536
G1 F1200
G1 X134.03 Y108.28 E.01507
;WIDTH:0.452894
G1 X134.01 Y108.402 E.0042
;WIDTH:0.493251
G1 X133.989 Y108.523 E.00461
;WIDTH:0.533608
G1 X133.969 Y108.645 E.00503
;WIDTH:0.573965
G1 X133.949 Y108.766 E.00544
;WIDTH:0.614322
G1 X133.929 Y108.888 E.00585
G1 X133.88 Y108.785 E.00539
;WIDTH:0.573965
G1 X133.832 Y108.683 E.00501
;WIDTH:0.533608
G1 X133.783 Y108.58 E.00463
;WIDTH:0.493251
G1 X133.735 Y108.478 E.00425
;WIDTH:0.452894
G1 X133.686 Y108.375 E.00387
;WIDTH:0.412536
G1 X133.522 Y108.175 E.00796
G1 X133.772 Y108.11 E.00796
G1 X133.992 Y107.836 E.01079
M204 P800
G1 X133.921 Y109.079 F12000
M204 P600
;WIDTH:0.630988
G1 F1200
G1 X133.945 Y109.187 E.00539
;WIDTH:0.58173
G1 X133.97 Y109.294 E.00494
;WIDTH:0.532472
G1 X133.994 Y109.402 E.00449
;WIDTH:0.483213
G1 X134.011 Y110.376 E.03567
;WIDTH:0.449999
G1 X134.011 Y110.924 E.01856
G1 X133.172 Y111.409 E.03279
;WIDTH:0.492188
G1 X132.665 Y111.677 E.02143
;WIDTH:0.538458
G1 X132.566 Y111.708 E.00427
;WIDTH:0.584727
G1 X132.467 Y111.738 E.00467
;WIDTH:0.630996
G1 X132.368 Y111.768 E.00507
G1 X132.415 Y111.682 E.00482
;WIDTH:0.584727
G1 X132.463 Y111.596 E.00444
;WIDTH:0.538458
G1 X132.511 Y111.51 E.00406
;WIDTH:0.492188
G1 X132.853 Y110.974 E.02375
;WIDTH:0.449999
G1 X133.31 Y110.212 E.03007
;WIDTH:0.495247
G1 X133.462 Y109.929 E.0121
;WIDTH:0.540494
G1 X133.615 Y109.646 E.01331
;WIDTH:0.585741
G1 X133.768 Y109.362 E.01452
;WIDTH:0.630988
G1 X133.892 Y109.132 E.0128
M204 P800
G1 E-.64 F2100
;WIPE_START
G1 F9600
G1 X133.945 Y109.187 E-.01584
G1 X133.97 Y109.294 E-.02292
G1 X133.994 Y109.402 E-.02292
G1 X134.002 Y109.836 E-.09033
;WIPE_END
G1 E-.008 F2100
G1 Z.4 F720
G1 X132.206 Y111.871 F12000
G1 Z.2 F720
G1 E.8 F1500
M204 P600
;WIDTH:0.614328
G1 F1200
G1 X132.111 Y111.95 E.00585
;WIDTH:0.57397
G1 X132.016 Y112.028 E.00544
;WIDTH:0.533612
G1 X131.921 Y112.106 E.00503
;WIDTH:0.493254
G1 X131.826 Y112.184 E.00461
;WIDTH:0.452896
G1 X131.73 Y112.263 E.0042
;WIDTH:0.412537
G1 X131.302 Y112.51 E.0152
G1 X131.455 Y112.125 E.01273
G1 X131.385 Y111.875 E.00796
G1 X131.641 Y111.918 E.00796
;WIDTH:0.452896
G1 X131.754 Y111.909 E.00387
;WIDTH:0.493254
G1 X131.867 Y111.899 E.00425
;WIDTH:0.533612
G1 X131.98 Y111.89 E.00463
;WIDTH:0.57397
G1 X132.093 Y111.881 E.00501
;WIDTH:0.614328
G1 X132.146 Y111.876 E.00254
M204 P800
G1 E-.64 F2100
;WIPE_START
G1 F9600
G1 X132.111 Y111.95 E-.01692
G1 X132.016 Y112.028 E-.0256
G1 X131.921 Y112.106 E-.0256
G1 X131.826 Y112.184 E-.0256
G1 X131.73 Y112.263 E-.0256
G1 X131.594 Y112.341 E-.03269
;WIPE_END
G1 E-.008 F2100
G1 Z.4 F720
G1 X134.318 Y105.322 F12000
G1 Z.2 F720
G1 E.8 F1500
M204 P600
;WIDTH:0.650206
G1 F1200
G1 X134.343 Y105.389 E.00359
;WIDTH:0.600938
G1 X134.367 Y105.456 E.0033
;WIDTH:0.55167
G1 X134.392 Y105.522 E.00301
;WIDTH:0.502402
G1 X134.417 Y105.589 E.00271
;WIDTH:0.453134
G1 X134.441 Y105.656 E.00242
;WIDTH:0.403866
G1 X134.466 Y105.722 E.00213
;WIDTH:0.359923
G1 X134.463 Y105.922 E.00528
;WIDTH:0.386885
G1 X134.45 Y106.347 E.01215
;WIDTH:0.413847
G1 X134.436 Y106.772 E.01311
;WIDTH:0.449999
G1 X134.418 Y107.345 E.01941
G1 X134.418 Y111.159 E.12911
G1 X131.925 Y112.599 E.09746
;WIDTH:0.46605
G1 X131.099 Y113.066 E.03339
G1 X130.687 Y113.328 E.01715
;WIDTH:0.424727
G1 X130.276 Y113.589 E.01548
;WIDTH:0.383403
G1 X129.811 Y113.871 E.01538
;WIDTH:0.402577
G1 X129.748 Y113.883 E.00193
;WIDTH:0.446037
G1 X129.684 Y113.895 E.00217
;WIDTH:0.489497
G1 X129.621 Y113.906 E.0024
;WIDTH:0.532957
