; generated by PrusaSlicer 2.5.2+linux-x64-GTK3 on 2023-06-06 at 18:17:58 UTC


;
;
; 

; external perimeters extrusion width = 0.45mm
; perimeters extrusion width = 0.45mm
; infill extrusion width = 0.45mm
; solid infill extrusion width = 0.45mm
; top infill extrusion width = 0.40mm
; support material extrusion width = 0.33mm
; first layer extrusion width = 0.42mm

M73 P0 R21
M73 Q0 S21
M201 X1000 Y1000 Z200 E5000 ; sets maximum accelerations, mm/sec^2
M203 X200 Y200 Z12 E120 ; sets maximum feedrates, mm / sec
M204 P1250 R1250 T1250 ; sets acceleration (P, T) and retract acceleration (R), mm/sec^2
M205 X8.00 Y8.00 Z0.40 E4.50 ; sets the jerk limits, mm/sec
M205 S0 T0 ; sets the minimum extruding and travel feed rate, mm/sec
M107
;TYPE:Custom
M862.3 P "MK3S" ; printer model check
M862.1 P0.4 ; nozzle diameter check
M115 U3.12.2 ; tell printer latest fw version
G90 ; use absolute coordinates
M83 ; extruder relative mode
M104 S215 ; set extruder temp
M140 S60 ; set bed temp
M190 S60 ; wait for bed temp
M109 S215 ; wait for extruder temp
G28 W ; home all without mesh bed level
G80 ; mesh bed leveling

G1 Z0.2 F720
G1 Y-3 F1000 ; go outside print area
G92 E0
G1 X60 E9 F1000 ; intro line
G1 X100 E12.5 F1000 ; intro line

G92 E0
M221 S100

; Don't change E values below. Excessive value can damage the printer.
M907 E430 ; set extruder motor current
G21 ; set units to millimeters
G90 ; use absolute coordinates
M83 ; use relative distances for extrusion
M900 K0.05 ; Filament gcode LA 1.5
M900 K30 ; Filament gcode LA 1.0
M107
;LAYER_CHANGE
;Z:0.2
;HEIGHT:0.2
;BEFORE_LAYER_CHANGE
G92 E0.0
;0.2


M73 P0 R20
G1 E-.8 F2100
G1 Z.4 F720
;AFTER_LAYER_CHANGE
;0.2
G1 X118.472 Y74.711 F10800
G1 Z.2 F720
G1 E.8 F2100
M204 S800
;TYPE:Skirt/Brim
;WIDTH:0.42
G1 F1200
G1 X120.153 Y74.015 E.05704
G1 X129.847 Y74.015 E.30395
G1 X131.528 Y74.711 E.05704
M73 Q0 S20
G1 X132.311 Y76.166 E.05181
G1 X134.135 Y88.943 E.40465
G1 X135.955 Y103.497 E.45989
G1 X135.973 Y124.401 E.65544
G1 X135.277 Y126.082 E.05704
G1 X128.492 Y132.36 E.28984
G1 X126.879 Y132.991 E.0543
G1 X123.121 Y132.991 E.11782
G1 X121.508 Y132.36 E.0543
G1 X114.723 Y126.082 E.28984
G1 X114.027 Y124.401 E.05704
G1 X114.045 Y103.497 E.65544
G1 X115.865 Y88.943 E.45989
M73 P1 R20
M73 Q1 S20
G1 X117.689 Y76.166 E.40465
G1 X118.444 Y74.764 E.04993
M204 S1000
;WIPE_START
G1 F8640
G1 X120.153 Y74.015 E-.43091
G1 X121.578 Y74.015 E-.32909
;WIPE_END
G1 E-.04 F2100
G1 Z.6 F720
G1 X124.39 Y113.688 F10800
G1 Z.2 F720
G1 E.8 F2100
M204 S800
G1 F1200
G1 X125.621 Y113.685 E.03859
G1 X126.787 Y113.982 E.03774
G1 X127.816 Y114.539 E.03668
G1 X129.092 Y115.913 E.05878
G1 X130.216 Y118.203 E.07998
G1 X130.771 Y119.593 E.04693
G1 X130.961 Y120.842 E.03962
G1 X130.914 Y121.551 E.02228
G1 X130.767 Y122.261 E.02272
G1 X130.239 Y123.416 E.03982
G1 X129.632 Y124.233 E.03193
G1 X128.677 Y125.003 E.03844
G1 X127.66 Y125.483 E.03528
G1 X125.968 Y125.744 E.05366
G1 X124.076 Y125.744 E.05932
G1 X122.616 Y125.528 E.04629
G1 X121.638 Y125.123 E.0332
G1 X120.78 Y124.518 E.03292
G1 X120.1 Y123.771 E.03167
G1 X119.615 Y122.951 E.02986
G1 X119.285 Y122.036 E.03051
G1 X119.15 Y121.045 E.03136
G1 X119.334 Y119.589 E.04603
G1 X119.805 Y118.324 E.04231
G1 X121.251 Y115.388 E.10262
G1 X122.136 Y114.571 E.03775
G1 X123.221 Y113.967 E.03895
G1 X124.332 Y113.702 E.0358
M204 S1000
G1 X124.417 Y114.068 F10800
M204 S800
G1 F1200
G1 X125.596 Y114.062 E.03695
G1 X126.669 Y114.34 E.03478
G1 X127.608 Y114.855 E.03355
G1 X128.765 Y116.104 E.05339
G1 X129.875 Y118.363 E.07891
G1 X130.402 Y119.673 E.04427
G1 X130.583 Y120.838 E.03699
G1 X130.538 Y121.512 E.02119
G1 X130.402 Y122.162 E.0208
G1 X129.906 Y123.24 E.0372
G1 X129.345 Y123.987 E.0293
G1 X128.46 Y124.694 E.0355
G1 X127.526 Y125.13 E.03234
G1 X125.955 Y125.367 E.04982
G1 X124.091 Y125.367 E.05845
G1 X122.696 Y125.159 E.04422
G1 X121.804 Y124.784 E.03033
G1 X121.015 Y124.223 E.03033
G1 X120.394 Y123.533 E.02913
G1 X119.949 Y122.776 E.02752
G1 X119.647 Y121.929 E.02821
G1 X119.527 Y121.02 E.02874
G1 X119.695 Y119.7 E.04173
G1 X120.148 Y118.481 E.04078
G1 X121.533 Y115.639 E.09911
G1 X122.339 Y114.89 E.03451
G1 X123.381 Y114.31 E.03738
G1 X124.359 Y114.082 E.03148
M204 S1000
G1 X124.442 Y114.449 F10800
M204 S800
G1 F1200
G1 X124.515 Y114.433 E.00235
G1 X125.569 Y114.438 E.03305
G1 X126.549 Y114.698 E.0318
G1 X127.398 Y115.17 E.03044
G1 X128.439 Y116.294 E.04805
G1 X129.533 Y118.523 E.07786
G1 X130.033 Y119.754 E.04164
G1 X130.206 Y120.836 E.03435
G1 X130.167 Y121.448 E.01925
G1 X130.038 Y122.063 E.01968
G1 X129.572 Y123.063 E.03458
G1 X129.091 Y123.708 E.02524
G1 X128.243 Y124.385 E.034
G1 X127.393 Y124.776 E.02934
G1 X125.941 Y124.99 E.04602
G1 X124.105 Y124.99 E.05758
G1 X122.776 Y124.79 E.04213
G1 X121.972 Y124.446 E.02742
G1 X121.253 Y123.93 E.02776
G1 X120.688 Y123.297 E.02659
G1 X120.284 Y122.603 E.02518
G1 X120.009 Y121.823 E.02592
G1 X119.904 Y120.997 E.02612
G1 X120.056 Y119.811 E.03748
G1 X120.492 Y118.636 E.03929
G1 X121.817 Y115.89 E.09562
G1 X122.544 Y115.207 E.03124
G1 X123.54 Y114.653 E.03577
G1 X124.383 Y114.462 E.02709
M204 S1000
G1 X124.467 Y114.826 F10800
M204 S800
G1 F1200
G1 X124.535 Y114.81 E.00219
G1 X125.542 Y114.815 E.03156
G1 X126.427 Y115.056 E.02876
G1 X127.187 Y115.483 E.02735
G1 X128.112 Y116.485 E.04276
G1 X129.192 Y118.684 E.07681
G1 X129.665 Y119.837 E.03905
G1 X129.828 Y120.833 E.03167
G1 X129.791 Y121.41 E.01813
G1 X129.673 Y121.962 E.0177
G1 X129.24 Y122.884 E.03193
G1 X128.805 Y123.461 E.02266
G1 X128.029 Y124.074 E.03102
G1 X127.263 Y124.421 E.02636
G1 X125.928 Y124.613 E.04228
G1 X124.119 Y124.613 E.05671
G1 X122.858 Y124.421 E.04
G1 X122.143 Y124.109 E.02447
G1 X121.491 Y123.637 E.02521
G1 X120.984 Y123.062 E.02404
G1 X120.62 Y122.43 E.02286
G1 X120.372 Y121.719 E.02364
G1 X120.281 Y120.975 E.02351
G1 X120.417 Y119.922 E.03328
G1 X120.836 Y118.79 E.03782
G1 X122.103 Y116.139 E.09215
G1 X122.75 Y115.524 E.028
G1 X123.653 Y115.013 E.03251
G1 X124.409 Y114.839 E.02432
M204 S1000
G1 X124.494 Y115.202 F10800
M204 S800
G1 F1200
G1 X124.558 Y115.187 E.00206
G1 X125.47 Y115.186 E.02858
G1 X126.263 Y115.397 E.02573
G1 X126.976 Y115.797 E.02565
G1 X127.786 Y116.676 E.03745
G1 X128.851 Y118.845 E.07578
G1 X129.297 Y119.921 E.03651
G1 X129.45 Y120.833 E.02899
G1 X129.419 Y121.346 E.01612
G1 X129.309 Y121.862 E.01653
G1 X128.908 Y122.703 E.02923
G1 X128.52 Y123.212 E.02007
G1 X127.816 Y123.762 E.02802
G1 X127.134 Y124.066 E.02339
G1 X125.916 Y124.236 E.03859
G1 X124.134 Y124.236 E.05586
G1 X122.941 Y124.052 E.03784
G1 X122.316 Y123.773 E.02147
G1 X121.732 Y123.346 E.02269
G1 X121.281 Y122.829 E.02149
G1 X120.957 Y122.26 E.02054
G1 X120.736 Y121.616 E.02135
G1 X120.658 Y120.954 E.02089
G1 X120.778 Y120.033 E.02914
G1 X121.18 Y118.944 E.0364
G1 X122.389 Y116.386 E.08871
G1 X122.959 Y115.838 E.02477
G1 X123.767 Y115.374 E.02923
G1 X124.436 Y115.216 E.02155
M204 S1000
G1 X124.519 Y115.582 F10800
M204 S800
G1 F1200
G1 X124.619 Y115.559 E.00322
G1 X125.444 Y115.563 E.02585
G1 X126.099 Y115.737 E.02126
G1 X126.765 Y116.111 E.02396
G1 X127.459 Y116.866 E.03214
G1 X128.51 Y119.006 E.07475
G1 X128.94 Y120.046 E.03527
G1 X129.073 Y120.831 E.02499
G1 X129.044 Y121.308 E.01498
G1 X128.946 Y121.759 E.01446
G1 X128.578 Y122.521 E.02653
G1 X128.237 Y122.962 E.01747
G1 X127.605 Y123.448 E.02502
G1 X127.008 Y123.709 E.02042
G1 X125.903 Y123.859 E.03497
G1 X124.149 Y123.859 E.05501
G1 X123.026 Y123.684 E.03563
G1 X122.492 Y123.439 E.01842
G1 X121.974 Y123.056 E.02021
G1 X121.58 Y122.598 E.01893
G1 X121.294 Y122.09 E.01828
G1 X121.108 Y121.552 E.01788
G1 X121.035 Y120.933 E.01951
G1 X121.139 Y120.143 E.02498
G1 X121.525 Y119.096 E.03501
G1 X122.677 Y116.631 E.0853
G1 X123.168 Y116.153 E.02148
G1 X123.93 Y115.715 E.02755
G1 X124.46 Y115.595 E.01705
M204 S1000
G1 X124.54 Y115.958 F10800
M204 S800
G1 F1200
G1 X124.638 Y115.937 E.00313
G1 X125.416 Y115.94 E.02441
G1 X125.975 Y116.094 E.01817
G1 X126.552 Y116.424 E.02085
G1 X127.133 Y117.056 E.02692
G1 X128.169 Y119.167 E.07371
G1 X128.583 Y120.17 E.03403
G1 X128.695 Y120.832 E.02105
G1 X128.672 Y121.243 E.01292
G1 X128.582 Y121.656 E.01324
M73 Q2 S20
G1 X128.249 Y122.336 E.02375
G1 X127.956 Y122.709 E.01487
G1 X127.397 Y123.133 E.02201
G1 X126.885 Y123.352 E.01745
G1 X125.892 Y123.482 E.03142
G1 X124.164 Y123.481 E.05417
G1 X123.111 Y123.316 E.03341
M73 P2 R20
G1 X122.699 Y123.124 E.01426
G1 X122.243 Y122.791 E.01769
G1 X121.899 Y122.396 E.01643
G1 X121.632 Y121.921 E.01709
G1 X121.472 Y121.451 E.01558
G1 X121.412 Y120.915 E.01689
G1 X121.5 Y120.254 E.02091
G1 X121.871 Y119.247 E.03366
G1 X122.967 Y116.874 E.08195
G1 X123.378 Y116.467 E.01812
G1 X124.092 Y116.057 E.02584
G1 X124.482 Y115.971 E.0125
M204 S1000
G1 X124.565 Y116.335 F10800
M204 S800
G1 F1200
G1 X124.658 Y116.314 E.003
G1 X125.387 Y116.317 E.02286
G1 X125.847 Y116.449 E.01498
G1 X126.337 Y116.735 E.01779
G1 X126.806 Y117.247 E.02177
G1 X127.828 Y119.327 E.07268
G1 X128.227 Y120.294 E.03279
G1 X128.317 Y120.832 E.01709
G1 X128.297 Y121.206 E.01176
G1 X128.22 Y121.55 E.01105
G1 X127.921 Y122.148 E.02097
G1 X127.678 Y122.454 E.01225
G1 X127.192 Y122.816 E.01899
G1 X126.765 Y122.994 E.0145
G1 X125.88 Y123.105 E.02795
G1 X124.178 Y123.104 E.05339
G1 X123.243 Y122.962 E.02964
G1 X122.903 Y122.806 E.01174
G1 X122.513 Y122.526 E.01505
G1 X122.197 Y122.164 E.01507
G1 X121.971 Y121.755 E.01466
G1 X121.836 Y121.352 E.01331
G1 X121.79 Y120.9 E.01427
G1 X121.861 Y120.365 E.01691
G1 X122.217 Y119.397 E.03235
G1 X123.26 Y117.115 E.07866
G1 X123.592 Y116.779 E.0148
G1 X124.206 Y116.417 E.02236
G1 X124.507 Y116.348 E.00966
M204 S1000
G1 X124.594 Y116.712 F10800
M204 S800
G1 F1200
G1 X124.68 Y116.691 E.00279
G1 X125.357 Y116.694 E.02121
G1 X125.713 Y116.802 E.01168
G1 X126.12 Y117.044 E.01483
G1 X126.479 Y117.437 E.0167
G1 X127.487 Y119.488 E.07164
G1 X127.87 Y120.418 E.03155
G1 X127.94 Y120.832 E.01315
G1 X127.921 Y121.168 E.01057
G1 X127.858 Y121.442 E.00879
G1 X127.595 Y121.958 E.01818
G1 X127.401 Y122.197 E.00962
G1 X126.99 Y122.497 E.01597
G1 X126.649 Y122.635 E.01154
G1 X125.87 Y122.728 E.02459
G1 X124.191 Y122.727 E.05263
G1 X123.372 Y122.606 E.02596
G1 X123.103 Y122.486 E.00925
G1 X122.779 Y122.258 E.01242
G1 X122.516 Y121.963 E.0124
G1 X122.309 Y121.587 E.01346
G1 X122.209 Y121.292 E.00975
G1 X122.167 Y120.883 E.01289
G1 X122.222 Y120.476 E.0129
G1 X122.564 Y119.545 E.03108
G1 X123.554 Y117.352 E.07546
G1 X123.809 Y117.088 E.01152
G1 X124.325 Y116.776 E.01888
G1 X124.535 Y116.726 E.0068
M204 S1000
G1 X124.628 Y117.088 F10800
M204 S800
G1 F1200
G1 X124.704 Y117.068 E.00247
G1 X125.324 Y117.071 E.01942
G1 X125.573 Y117.152 E.00823
G1 X125.901 Y117.351 E.01202
G1 X126.153 Y117.627 E.01172
G1 X127.145 Y119.649 E.07061
G1 X127.513 Y120.542 E.0303
G1 X127.562 Y120.832 E.0092
G1 X127.545 Y121.129 E.00935
G1 X127.497 Y121.329 E.00644
G1 X127.271 Y121.764 E.01539
G1 X127.129 Y121.935 E.00697
G1 X126.792 Y122.175 E.01294
G1 X126.537 Y122.274 E.00859
G1 X125.86 Y122.351 E.02137
G1 X124.204 Y122.35 E.05192
G1 X123.498 Y122.25 E.02236
G1 X123.299 Y122.164 E.00678
G1 X123.041 Y121.987 E.00981
G1 X122.835 Y121.76 E.00961
G1 X122.646 Y121.419 E.01224
G1 X122.582 Y121.232 E.00619
G1 X122.544 Y120.867 E.01149
G1 X122.583 Y120.587 E.00888
G1 X122.911 Y119.693 E.02986
G1 X123.852 Y117.585 E.07237
G1 X124.032 Y117.393 E.00825
G1 X124.449 Y117.133 E.0154
G1 X124.57 Y117.102 E.00392
M204 S1000
G1 X124.67 Y117.463 F10800
M204 S800
G1 F1200
G1 X124.735 Y117.445 E.00213
G1 X125.244 Y117.44 E.01594
G1 X125.399 Y117.488 E.00508
G1 X125.682 Y117.66 E.01038
G1 X125.826 Y117.818 E.0067
G1 X126.804 Y119.809 E.06957
G1 X127.157 Y120.666 E.02906
G1 X127.184 Y120.832 E.00526
G1 X127.17 Y121.089 E.00807
G1 X127.139 Y121.212 E.00398
G1 X126.949 Y121.566 E.01261
G1 X126.861 Y121.669 E.00426
G1 X126.6 Y121.85 E.00993
G1 X126.431 Y121.911 E.00564
G1 X125.85 Y121.974 E.01832
G1 X124.216 Y121.973 E.05124
G1 X123.618 Y121.892 E.01892
G1 X123.495 Y121.841 E.00418
G1 X123.272 Y121.688 E.00847
G1 X123.154 Y121.559 E.0055
G1 X122.985 Y121.253 E.01095
G1 X122.947 Y121.137 E.00383
G1 X122.922 Y120.856 E.00884
G1 X122.944 Y120.697 E.00501
G1 X123.258 Y119.839 E.02867
G1 X124.153 Y117.813 E.06945
G1 X124.26 Y117.694 E.005
G1 X124.612 Y117.479 E.01294
M204 S1000
G1 X124.725 Y117.836 F10800
M204 S800
G1 F1200
G1 X124.775 Y117.821 E.00165
G1 X125.177 Y117.812 E.0126
G1 X125.229 Y117.826 E.00169
G1 X125.463 Y117.968 E.00859
G1 X125.499 Y118.008 E.00169
G1 X126.463 Y119.97 E.06853
G1 X126.807 Y120.831 E.02909
G1 X126.783 Y121.085 E.00797
G1 X126.631 Y121.362 E.00992
G1 X126.41 Y121.523 E.00858
G1 X125.84 Y121.597 E.01802
G1 X124.228 Y121.596 E.05055
G1 X123.729 Y121.532 E.01577
G1 X123.504 Y121.39 E.00835
G1 X123.327 Y121.09 E.0109
G1 X123.305 Y120.808 E.00888
G1 X123.606 Y119.985 E.02749
G1 X124.461 Y118.031 E.06687
G1 X124.675 Y117.869 E.00839
M204 S1000
G1 X124.865 Y118.196 F10800
M204 S800
G1 F1200
G1 X125.103 Y118.191 E.00745
G1 X125.197 Y118.248 E.00345
G1 X126.122 Y120.13 E.06576
G1 X126.427 Y120.874 E.02521
G1 X126.422 Y120.959 E.00268
G1 X126.334 Y121.121 E.00577
G1 X126.257 Y121.172 E.00288
G1 X125.827 Y121.22 E.01359
G1 X124.244 Y121.219 E.04962
G1 X123.845 Y121.167 E.01261
G1 X123.772 Y121.116 E.00279
G1 X123.686 Y120.962 E.00554
G1 X123.68 Y120.88 E.00256
G1 X123.954 Y120.13 E.02503
G1 X124.774 Y118.257 E.06412
G1 X124.815 Y118.229 E.00157
M204 S1000
; printing object Sword.STL id:0 copy 0
;WIPE_START
G1 F8640
G1 X125.103 Y118.191 E-.06699
G1 X125.197 Y118.248 E-.02541
G1 X126.122 Y120.13 E-.48426
G1 X126.423 Y120.865 E-.18333
;WIPE_END
G1 E-.04 F2100
G1 Z.6 F720
G1 X123.682 Y112.052 F10800
G1 Z.2 F720
G1 E.8 F2100
M204 S800
;TYPE:Support material interface
;WIDTH:0.33
G1 F1200
G1 X123.602 Y111.494 E.01346
M204 S1000
G1 X123.618 Y111.066 F10800
M204 S800
G1 F1200
G1 X123.942 Y110.342 E.01895
G1 X123.602 Y110.271 E.00829
M204 S1000
G1 X123.698 Y109.759 F10800
M204 S800
G1 F1200
G1 X123.961 Y109.169 E.01541
G1 X123.961 Y101.361 E.18638
G1 X123.442 Y101.361 E.0124
G1 X123.442 Y113.51 E.28999
G1 X123.181 Y113.554 E.00633
G1 X123.181 Y101.361 E.29104
G1 X123.283 Y101.361 E.00243
M204 S1000
;WIPE_START
G1 F8640
G1 X123.181 Y101.361 E-.02352
G1 X123.181 Y104.551 E-.73648
;WIPE_END
G1 E-.04 F2100
G1 Z.6 F720
G1 X125.879 Y101.361 F10800
G1 Z.2 F720
G1 E.8 F2100
M204 S800
G1 F1200
G1 X125.519 Y101.361 E.00858
G1 X125.519 Y107.99 E.15822
G1 X125.362 Y107.676 E.00838
G1 X125.152 Y107.681 E.00502
G1 X125 Y107.38 E.00803
G1 X125 Y101.361 E.14368
G1 X124.481 Y101.361 E.0124
G1 X124.481 Y108.01 E.15871
G1 X124.217 Y108.599 E.01541
M204 S1000
;WIPE_START
G1 F8640
G1 X124.481 Y108.01 E-.14906
G1 X124.481 Y105.364 E-.61094
;WIPE_END
G1 E-.04 F2100
G1 Z.6 F720
G1 X125.855 Y108.658 F10800
G1 Z.2 F720
G1 E.8 F2100
M204 S800
G1 F1200
G1 X126.039 Y109.023 E.00975
G1 X126.039 Y101.361 E.18288
G1 X126.558 Y101.361 E.0124
G1 X126.558 Y113.55 E.29094
G1 X126.819 Y113.611 E.00641
G1 X126.819 Y101.361 E.2924
G1 X126.717 Y101.361 E.00243
M204 S1000
;WIPE_START
G1 F8640
G1 X126.819 Y101.361 E-.02352
G1 X126.819 Y104.551 E-.73648
;WIPE_END
G1 E-.04 F2100
G1 Z.6 F720
G1 X125.976 Y109.722 F10800
G1 Z.2 F720
G1 E.8 F2100
M204 S800
;TYPE:Support material
;WIDTH:0.42
G1 F1200
G1 X126.013 Y109.878 E.00502
G1 X125.538 Y109.98 E.01524
G1 X126.013 Y110.927 E.03321
G1 X126.05 Y111.083 E.00502
G1 X125.575 Y111.185 E.01524
G1 X126.05 Y112.132 E.03321
G1 X126.088 Y112.288 E.00501
G1 X125.612 Y112.39 E.01524
G1 X126.103 Y113.391 E.03495
G1 X125.16 Y113.17 E.03035
G1 X124.006 Y113.364 E.03671
G1 X124.391 Y112.502 E.02962
G1 X123.929 Y112.407 E.01481
G1 X124.429 Y111.287 E.03844
G1 X123.967 Y111.192 E.01481
M73 Q3 S20
G1 X124.468 Y110.072 E.03846
G1 X124.005 Y109.977 E.01481
G1 X124.865 Y108.057 E.06596
G1 X125.136 Y108.051 E.00852
M73 P3 R20
G1 X125.951 Y109.671 E.05686
M204 S1000
;WIPE_START
G1 F8640
G1 X125.136 Y108.051 E-.41876
G1 X124.865 Y108.057 E-.06271
G1 X124.372 Y109.158 E-.27853
;WIPE_END
G1 E-.04 F2100
G1 Z.6 F720
G1 X125.419 Y113.057 F10800
G1 Z.2 F720
G1 E.8 F2100
M204 S800
G1 F1200
G1 X125.419 Y112.761 E.00926
